!!!COM: Josquin des Prez
!!!CDT: ~1450-1521/08/27
!!!OTL@@FRA: Plaine de dueil
!!!AGN: Chanson
!!!SCT: NJE 29.20
!!!SCA: New Josquin Edition 29.20
!!!voices: 5
**kern	**text	**text	**text	**kern	**text	**text	**text	**kern	**text	**text	**text	**kern	**text	**text	**text	**kern	**text	**text	**text
*staff5	*	*	*	*staff4	*	*	*	*staff3	*	*	*	*staff2	*	*	*	*staff1	*	*	*
*Ivox	*	*	*	*Ivox	*	*	*	*Ivox	*	*	*	*Ivox	*	*	*	*Ivox	*	*	*
*I"Bassus	*I"Bassus	*	*	*I"Tenor	*	*	*	*I"Contratenor	*	*	*	*I"Quintus	*	*	*	*I"Superius	*	*	*
*I'B	*	*	*	*I'T	*	*	*	*I'Ct	*	*	*	*I'Q	*	*	*	*I'S	*	*	*
*clefF4	*	*	*	*clefGv2	*	*	*	*clefGv2	*	*	*	*clefGv2	*	*	*	*clefG2	*	*	*
*k[]	*	*	*	*k[]	*	*	*	*k[]	*	*	*	*k[]	*	*	*	*k[]	*	*	*
*M2/1	*	*	*	*M2/1	*	*	*	*M2/1	*	*	*	*M2/1	*	*	*	*M2/1	*	*	*
*met(C)	*	*	*	*met(C)	*	*	*	*met(C)	*	*	*	*met(C)	*	*	*	*met(C)	*	*	*
=1-	=1-	=1-	=1-	=1-	=1-	=1-	=1-	=1-	=1-	=1-	=1-	=1-	=1-	=1-	=1-	=1-	=1-	=1-	=1-
!	!	!	!	!	!	!	!	!	!	!	!	!LO:TX:Z=10:t=Canon at the upper 5th (Q-->S, one breve)	!	!	!	!	!	!	!
0r	.	.	.	1A	Plai-	Je	Il	1r	.	.	.	0r	.	.	.	0r	.	.	.
.	.	.	.	1A	-ne	te	ne	1A	Plai-	Je	Il	.	.	.	.	.	.	.	.
=2	=2	=2	=2	=2	=2	=2	=2	=2	=2	=2	=2	=2	=2	=2	=2	=2	=2	=2	=2
1r	.	.	.	1A	de	re-	me	1A	-ne	te	ne	1A	Plai-	Je	Il	0r	.	.	.
1AA	Plai-	Je	Il	1c	deuil,	-quiers,	chault,	1A	de	re-	me	1A	-ne	te	ne	.	.	.	.
=3	=3	=3	=3	=3	=3	=3	=3	=3	=3	=3	=3	=3	=3	=3	=3	=3	=3	=3	=3
1AA	-ne	te	ne	1r	.	.	.	0c	deuil,	-quiers,	chault,	1A	de	re-	me	1e	Plai-	Je	Il
1AA	de	re-	me	1E	plai-	je	il	.	.	.	.	1c	deuil	-quiers	chault	1e	-ne	te	ne
=4	=4	=4	=4	=4	=4	=4	=4	=4	=4	=4	=4	=4	=4	=4	=4	=4	=4	=4	=4
0C	deuil,	-quiers,	chault,	1E	-ne	te	ne	1r	.	.	.	1r	.	.	.	1e	de	re-	me
.	.	.	.	1E	de	re-	me	1E	plai-	je	il	1c	et	et	quy	1g	deuil	-quiers	chault
=5	=5	=5	=5	=5	=5	=5	=5	=5	=5	=5	=5	=5	=5	=5	=5	=5	=5	=5	=5
1C	et	et	quy	0G	deuil,	-quiers,	chault,	1E	-ne	te	ne	1.c	de	hum-	quy	1r	.	.	.
[1C	de	hum-	quy	.	.	.	.	1E	de	re-	me	.	.	.	.	1g	et	et	quy
.	.	.	.	.	.	.	.	.	.	.	.	2c\	me-	-ble-	en	.	.	.	.
=6	=6	=6	=6	=6	=6	=6	=6	=6	=6	=6	=6	=6	=6	=6	=6	=6	=6	=6	=6
2C/]	.	.	.	1r	.	.	.	1G	deuil,	-quiers,	chault,	2G/	-lan-	-ment	pleu-	1.g	de	hum-	quy
2C/	me-	-ble-	en	.	.	.	.	.	.	.	.	2G/	-co-	sup-	re ou	.	.	.	.
1GG	-lan-	-ment	pleu-	2r	.	.	.	1r	.	.	.	[1B-	-li-	-pli-	ri-	.	.	.	.
.	.	.	.	2G\	et	et	quy	.	.	.	.	.	.	.	.	2g/	me-	-ble-	en
=7	=7	=7	=7	=7	=7	=7	=7	=7	=7	=7	=7	=7	=7	=7	=7	=7	=7	=7	=7
1GG	-co-	sup-	re ou	2G\	de	hum-	quy	1r	.	.	.	1B-]	.	.	.	2d/	-lan-	-ment	pleu-
.	.	.	.	2G\	me-	-ble-	en	.	.	.	.	.	.	.	.	2d/	-co-	sup-	re ou
[1D	-li-	-pli-	ri-	1F	-lan-	-ment	pleu-	2r	.	.	.	1A	-e,	-e,	-e,	[1f	-li-	-pli-	ri-
.	.	.	.	.	.	.	.	2d\	et	et	quy	.	.	.	.	.	.	.	.
=8	=8	=8	=8	=8	=8	=8	=8	=8	=8	=8	=8	=8	=8	=8	=8	=8	=8	=8	=8
1D]	.	.	.	1D	-co-	sup-	re ou	2d\	de	hum-	quy	0r	.	.	.	1f]	.	.	.
.	.	.	.	.	.	.	.	2d\	me-	-ble-	en	.	.	.	.	.	.	.	.
1AA	-e,	-e,	-e,	[1A	-li-	-pli-	ri-	2c\	-lan-	-ment	pleu-	.	.	.	.	1e	-e,	-e,	-e,
.	.	.	.	.	.	.	.	2A/	-co-	sup-	re ou	.	.	.	.	.	.	.	.
=9	=9	=9	=9	=9	=9	=9	=9	=9	=9	=9	=9	=9	=9	=9	=9	=9	=9	=9	=9
2r	.	.	.	1A]	.	.	.	0e	-li-	-pli-	ri-	0r	.	.	.	0r	.	.	.
2AA/	et	et	quy	.	.	.	.	.	.	.	.	.	.	.	.	.	.	.	.
2C/	de	hum-	quy	2E	-e,	-e,	-e,	.	.	.	.	.	.	.	.	.	.	.	.
2C/	me-	-ble-	en	2G	et	et	quy	.	.	.	.	.	.	.	.	.	.	.	.
=10	=10	=10	=10	=10	=10	=10	=10	=10	=10	=10	=10	=10	=10	=10	=10	=10	=10	=10	=10
2GG/	-lan-	-ment	pleu-	2G	de	hum-	quy	1d	-e,	-e,	-e,	0r	.	.	.	0r	.	.	.
2GG/	-co-	sup-	re ou	2G	me-	-ble-	en	.	.	.	.	.	.	.	.	.	.	.	.
[1D	-li-	-pli-	ri-	1F	-lan-	-ment	pleu-	2r	.	.	.	.	.	.	.	.	.	.	.
.	.	.	.	.	.	.	.	2d\	et	et	quy	.	.	.	.	.	.	.	.
=11	=11	=11	=11	=11	=11	=11	=11	=11	=11	=11	=11	=11	=11	=11	=11	=11	=11	=11	=11
1D]	.	.	.	1D	-co-	sup-	re ou	2d\	de	hum-	quy	0r	.	.	.	0r	.	.	.
.	.	.	.	.	.	.	.	2d\	me-	-ble-	en	.	.	.	.	.	.	.	.
1AA	-e,	-e,	-e,	[1A	-li-	-pli-	ri-	2c\	-lan-	-ment	pleu-	.	.	.	.	.	.	.	.
.	.	.	.	.	.	.	.	2A/	-co-	sup-	re ou	.	.	.	.	.	.	.	.
=12	=12	=12	=12	=12	=12	=12	=12	=12	=12	=12	=12	=12	=12	=12	=12	=12	=12	=12	=12
1r	.	.	.	1A]	.	.	.	1c	-li-	-pli-	ri-	1e	Voy-	Pour	A	0r	.	.	.
1E	Voy-	Pour	A	1E	-e,	-e,	-e,	1B	-e,	-e,	-e,	1e	-ant	les	toy	.	.	.	.
=13	=13	=13	=13	=13	=13	=13	=13	=13	=13	=13	=13	=13	=13	=13	=13	=13	=13	=13	=13
1E	-ant	les	toy	1r	.	.	.	0r	.	.	.	1e	mon	dou-	je	1b	Voy-	Pour	A
1E	mon	dou-	je	1B	Voy-	Pour	A	.	.	.	.	1g	mal	leurs	suis	1b	-ant	les	toy
=14	=14	=14	=14	=14	=14	=14	=14	=14	=14	=14	=14	=14	=14	=14	=14	=14	=14	=14	=14
0G	mal	leurs	suis	1B	-ant	les	toy	0r	.	.	.	1r	.	.	.	1b	mon	dou-	je
.	.	.	.	1B	mon	dou-	je	.	.	.	.	1g	qui	de	be-	1dd	mal	leurs	suis
=15	=15	=15	=15	=15	=15	=15	=15	=15	=15	=15	=15	=15	=15	=15	=15	=15	=15	=15	=15
1G	qui	de	be-	0d	mal	leurs	suis	1B	Voy-	Pour	A	1.g	tous-	quoy	-soing	1r	.	.	.
[1G	tous-	quoy	-soing	.	.	.	.	1B	-ant	les	toy	.	.	.	.	1dd	qui	de	be-
.	.	.	.	.	.	.	.	.	.	.	.	2g\	-jours	je	n'est	.	.	.	.
=16	=16	=16	=16	=16	=16	=16	=16	=16	=16	=16	=16	=16	=16	=16	=16	=16	=16	=16	=16
2G\]	.	.	.	1r	.	.	.	1B	mon	dou-	je	2d\	mul-	suis	que	1.dd	tous-	quoy	-soing
2G\	-jours	je	n'est	.	.	.	.	.	.	.	.	2d\	-ti-	rem-	le	.	.	.	.
1F	mul-	suis	que	2r	.	.	.	1d	mal	leurs	suis	[1f	-pli-	-pli-	ni-	.	.	.	.
.	.	.	.	2d\	qui	de	be-	.	.	.	.	.	.	.	.	2dd\	-jours	je	n'est
=17	=17	=17	=17	=17	=17	=17	=17	=17	=17	=17	=17	=17	=17	=17	=17	=17	=17	=17	=17
1D	-ti-	rem-	le	2d\	tous-	quoy	-soing	2r	.	.	.	1f]	.	.	.	2a/	mul-	suis	que
.	.	.	.	2d\	-jours	je	n'est	2d\	qui	de	be-	.	.	.	.	2a/	-ti-	rem-	le
[1A	-pli-	-pli-	ni-	1c	mul-	suis	que	2e\	tous-	quoy	-soing	1e	-e,	-e,	-e,	[1cc	-pli-	-pli-	ni-
.	.	.	.	.	.	.	.	2A/	-jours	je	n'est	.	.	.	.	.	.	.	.
=18	=18	=18	=18	=18	=18	=18	=18	=18	=18	=18	=18	=18	=18	=18	=18	=18	=18	=18	=18
1A]	.	.	.	1A	-ti-	rem-	le	2e\	mul-	suis	que	0r	.	.	.	1cc]	.	.	.
.	.	.	.	.	.	.	.	2f\	-ti-	rem-	le	.	.	.	.	.	.	.	.
1E	-e,	-e,	-e,	[1e	-pli-	-pli-	ni-	[1g	-pli-	-pli-	ni-	.	.	.	.	1b	-e,	-e,	-e,
=19	=19	=19	=19	=19	=19	=19	=19	=19	=19	=19	=19	=19	=19	=19	=19	=19	=19	=19	=19
2r	.	.	.	1e]	.	.	.	1g]	.	.	.	0r	.	.	.	0r	.	.	.
2E\	qui	de	be-	.	.	.	.	.	.	.	.	.	.	.	.	.	.	.	.
2G\	tous-	quoy	-soing	2B\	-e,	-e,	-e,	1d	-e,	-e,	-e,	.	.	.	.	.	.	.	.
2G\	-jours	je	n'est	2d\	qui	de	be-	.	.	.	.	.	.	.	.	.	.	.	.
=20	=20	=20	=20	=20	=20	=20	=20	=20	=20	=20	=20	=20	=20	=20	=20	=20	=20	=20	=20
2D\	mul-	suis	que	2d\	tous-	quoy	-soing	2r	.	.	.	0r	.	.	.	0r	.	.	.
2D\	-ti-	rem-	le	2d\	-jours	je	n'est	2d\	qui	de	be-	.	.	.	.	.	.	.	.
[1A	-pli-	-pli-	ni-	1c	mul-	suis	que	2e\	tous-	quoy	-soing	.	.	.	.	.	.	.	.
.	.	.	.	.	.	.	.	2A/	-jours	je	n'est	.	.	.	.	.	.	.	.
=21	=21	=21	=21	=21	=21	=21	=21	=21	=21	=21	=21	=21	=21	=21	=21	=21	=21	=21	=21
1A]	.	.	.	1A	-ti-	rem-	le	2e\	mul-	suis	que	0r	.	.	.	0r	.	.	.
.	.	.	.	.	.	.	.	2f\	-ti-	rem-	le	.	.	.	.	.	.	.	.
1E	-e,	-e,	-e,	[1e	-pli-	-pli-	ni-	[1g	-pli-	-pli-	ni-	.	.	.	.	.	.	.	.
=22	=22	=22	=22	=22	=22	=22	=22	=22	=22	=22	=22	=22	=22	=22	=22	=22	=22	=22	=22
1r	.	.	.	1e]	.	.	.	1g]	.	.	.	1g	Et	Ne	Plus	0r	.	.	.
1G	Et	Ne	Plus	1B	-e,	-e,	-e,	1d	-e,	-e,	-e,	1g	qu'en	me	n'est	.	.	.	.
=23	=23	=23	=23	=23	=23	=23	=23	=23	=23	=23	=23	=23	=23	=23	=23	=23	=23	=23	=23
1G	qu'en	me	n'est	1r	.	.	.	0r	.	.	.	1g	la	vou-	pos-	1dd	Et	Ne	Plus
1G	la	vou-	pos-	2r	.	.	.	.	.	.	.	1d	fin	-loir	-sible	1dd	qu'en	me	n'est
.	.	.	.	[2d\	Et	Ne	Plus	.	.	.	.	.	.	.	.	.	.	.	.
=24	=24	=24	=24	=24	=24	=24	=24	=24	=24	=24	=24	=24	=24	=24	=24	=24	=24	=24	=24
1D	fin,	-loir,	-sible,	2d\]	.	.	.	1.f	Et	Ne	Plus	0r	.	.	.	1dd	la	vou-	pos-
.	.	.	.	2d\	qu'en	me	n'est	.	.	.	.	.	.	.	.	.	.	.	.
2D\	et	ne	plus	1d	la	vou-	pos-	.	.	.	.	.	.	.	.	1a	fin	-loir	-sible
2D\	qu'en	me	n'est	.	.	.	.	2f\	qu'en	me	n'est	.	.	.	.	.	.	.	.
=25	=25	=25	=25	=25	=25	=25	=25	=25	=25	=25	=25	=25	=25	=25	=25	=25	=25	=25	=25
1D	la	vou-	pos-	1A	fin	-loir	-sible	1f	la	vou-	pos-	2r	.	.	.	0r	.	.	.
.	.	.	.	.	.	.	.	.	.	.	.	2d\	plus	ja-	a	.	.	.	.
1AA	fin,	-loir,	-sible,	2r	.	.	.	1e	fin	-loir	-sible	2c\	ne	-mais	moy	.	.	.	.
.	.	.	.	2A\	plus	ja-	a	.	.	.	.	2c\	le	a-	dis-	.	.	.	.
=26	=26	=26	=26	=26	=26	=26	=26	=26	=26	=26	=26	=26	=26	=26	=26	=26	=26	=26	=26
2r	.	.	.	2F\	ne	-mais	moy	2r	.	.	.	1d	puis	-ban-	-si-	2r	.	.	.
2D\	plus	ja-	a	2D\	le	a-	dis-	2f\	plus	ja-	a	.	.	.	.	2a/	plus	ja-	a
2GG/	ne	-mais	moy	1G	puis	-ban-	-si-	2g\	ne	-mais	moy	1B	por-	-don-	-mu-	2g/	ne	-mais	moy
2GG/	le	a-	dis-	.	.	.	.	2d\	le	a-	dis-	.	.	.	.	2g/	le	a-	dis-
=27	=27	=27	=27	=27	=27	=27	=27	=27	=27	=27	=27	=27	=27	=27	=27	=27	=27	=27	=27
1D	puis	-ban-	-si-	1F	por-	-don-	-mu-	2d\	puis	-ban-	-si-	0A	-ter,	-ner,	-ler,	1a	puis	-ban-	-si-
.	.	.	.	.	.	.	.	1f	por-	-don-	-mu-	.	.	.	.	.	.	.	.
1D	por-	-don-	-mu-	1D	-ter,	-ner,	-ler,	.	.	.	.	.	.	.	.	1f	por-	-don-	-mu-
.	.	.	.	.	.	.	.	4e\	.	.	.	.	.	.	.	.	.	.	.
.	.	.	.	.	.	.	.	4d\	.	.	.	.	.	.	.	.	.	.	.
=28	=28	=28	=28	=28	=28	=28	=28	=28	=28	=28	=28	=28	=28	=28	=28	=28	=28	=28	=28
0AA	-ter,	-ner,	-ler,	1r	.	.	.	0c	-ter,	-ner,	-ler,	0r	.	.	.	0e	-ter,	-ner,	-ler,
.	.	.	.	1A	plus	ja-	a	.	.	.	.	.	.	.	.	.	.	.	.
=29	=29	=29	=29	=29	=29	=29	=29	=29	=29	=29	=29	=29	=29	=29	=29	=29	=29	=29	=29
1.F	plus	ja-	a	1.A	ne	-mais	moy	2r	.	.	.	0r	.	.	.	0r	.	.	.
.	.	.	.	.	.	.	.	2c\	plus	ja-	a	.	.	.	.	.	.	.	.
.	.	.	.	.	.	.	.	2c\	ne	-mais	moy	.	.	.	.	.	.	.	.
2E\	ne	-mais	moy	2G\	le	a-	dis-	2c\	le	a-	dis-	.	.	.	.	.	.	.	.
=30	=30	=30	=30	=30	=30	=30	=30	=30	=30	=30	=30	=30	=30	=30	=30	=30	=30	=30	=30
2D\	le	a-	dis-	2F\	puis	-ban-	-si-	2B\	puis	-ban-	-si-	0r	.	.	.	0r	.	.	.
2C/	puis	-ban-	-si-	2E\	.	.	.	2.A/	por-	-don-	-mu-	.	.	.	.	.	.	.	.
1BB	por-	-don-	-mu-	1D	por-	-don-	-mu-	.	.	.	.	.	.	.	.	.	.	.	.
.	.	.	.	.	.	.	.	4G#i/	.	.	.	.	.	.	.	.	.	.	.
.	.	.	.	.	.	.	.	4G#i/	.	.	.	.	.	.	.	.	.	.	.
.	.	.	.	.	.	.	.	4F#i/	.	.	.	.	.	.	.	.	.	.	.
=31	=31	=31	=31	=31	=31	=31	=31	=31	=31	=31	=31	=31	=31	=31	=31	=31	=31	=31	=31
0AA	-ter,	-ner,	-ler,	0E	-ter,	-ner,	-ler,	0A	-ter,	-ner,	-ler,	1r	.	.	.	0r	.	.	.
.	.	.	.	.	.	.	.	.	.	.	.	1c	Con-	Mais	Par	.	.	.	.
=32	=32	=32	=32	=32	=32	=32	=32	=32	=32	=32	=32	=32	=32	=32	=32	=32	=32	=32	=32
1C	Con-	Mais	Par	0r	.	.	.	0r	.	.	.	1c	-strain-	es-	quoy	1r	.	.	.
1C	-strain-	es-	quoy	.	.	.	.	.	.	.	.	1c	-te	-tre a	je	1g	Con-	Mais	Par
=33	=33	=33	=33	=33	=33	=33	=33	=33	=33	=33	=33	=33	=33	=33	=33	=33	=33	=33	=33
1C	-te	-tre a	je	1r	.	.	.	1r	.	.	.	1G	suis	moy	dis-	1g	-strain-	es-	quoy
1GG	suis	moy	dis-	1G	Con-	Mais	Par	1B-i	Con-	Mais	Par	1r	.	.	.	1g	-te	-tre a	je
=34	=34	=34	=34	=34	=34	=34	=34	=34	=34	=34	=34	=34	=34	=34	=34	=34	=34	=34	=34
0r	.	.	.	1G	-strain-	es-	quoy	1B-i	-strain-	es-	quoy	1r	.	.	.	1d	suis	moy	dis-
.	.	.	.	1G	-te	-tre a	je	1B-i	-te	-tre a	je	2r	.	.	.	1r	.	.	.
.	.	.	.	.	.	.	.	.	.	.	.	2G/	pour	et	en	.	.	.	.
=35	=35	=35	=35	=35	=35	=35	=35	=35	=35	=35	=35	=35	=35	=35	=35	=35	=35	=35	=35
2r	.	.	.	0D	suis	moy	dis-	2A/	suis	moy	dis-	1A	me	ne	par-	1r	.	.	.
2D\	pour	et	en	.	.	.	.	2F/	pour	et	en	.	.	.	.	.	.	.	.
2D\	me	ne	par-	.	.	.	.	2F/	me	ne	par-	1B	re-	te	-lant	2r	.	.	.
2D\	re-	te	-lant	.	.	.	.	2F/	re-	te	-lant	.	.	.	.	2d/	pour	et	en
=36	=36	=36	=36	=36	=36	=36	=36	=36	=36	=36	=36	=36	=36	=36	=36	=36	=36	=36	=36
1C	-con-	des-	de	0r	.	.	.	2G/	-con-	des-	de	1c	-con-	des-	de	1e	me	ne	par-
.	.	.	.	.	.	.	.	1A	-for-	-tour-	cuer	.	.	.	.	.	.	.	.
1D	-for-	-tour-	cuer	.	.	.	.	.	.	.	.	1A	-for-	-tour-	cuer	1f	re-	te	-lant
.	.	.	.	.	.	.	.	2D/	-ter,	-ner,	cler,	.	.	.	.	.	.	.	.
=37	=37	=37	=37	=37	=37	=37	=37	=37	=37	=37	=37	=37	=37	=37	=37	=37	=37	=37	=37
2GG/	-ter,	-ner,	cler,	2r	.	.	.	2r	.	.	.	0G	-ter,	-ner,	cler,	1g	-con-	des-	de
2GG/	pour	et	en	2B-\	pour	et	en	2d\	pour	et	en	.	.	.	.	.	.	.	.
2C/	me	ne	par-	2c\	me	ne	par-	2c\	me	ne	par-	.	.	.	.	1e	-for-	-tour-	cuer
2C/	re-	te	-lant	2G\	re-	te	-lant	2c\	re-	te	-lant	.	.	.	.	.	.	.	.
=38	=38	=38	=38	=38	=38	=38	=38	=38	=38	=38	=38	=38	=38	=38	=38	=38	=38	=38	=38
1GG	-con-	des-	de	1B-i	-con-	des-	de	4d\	-con-	des-	de	0r	.	.	.	0d	-ter,	-ner,	cler,
.	.	.	.	.	.	.	.	4G/	.	.	.	.	.	.	.	.	.	.	.
.	.	.	.	.	.	.	.	2.g\	.	.	.	.	.	.	.	.	.	.	.
1D	-for-	-tour-	cuer	1A	-for-	-tour-	cuer	.	.	.	.	.	.	.	.	.	.	.	.
.	.	.	.	.	.	.	.	4f#i\	.	.	.	.	.	.	.	.	.	.	.
.	.	.	.	.	.	.	.	4f#i\	-for-	-tour-	cuer	.	.	.	.	.	.	.	.
.	.	.	.	.	.	.	.	4e\	.	.	.	.	.	.	.	.	.	.	.
=39	=39	=39	=39	=39	=39	=39	=39	=39	=39	=39	=39	=39	=39	=39	=39	=39	=39	=39	=39
2GG/	-ter,	-ner,	cler,	2G\	-ter,	-ner,	cler,	2g\	-ter,	-ner,	cler,	0r	.	.	.	0r	.	.	.
2G\	pour	et	en	2B-i\	pour	et	en	2d\	pour	et	en	.	.	.	.	.	.	.	.
2C/	me	ne	par-	2c\	me	ne	par-	2e\	me	ne	par-	.	.	.	.	.	.	.	.
2C/	re-	te	-lant	2G\	re-	te	-lant	2e\	re-	te	-lant	.	.	.	.	.	.	.	.
=40	=40	=40	=40	=40	=40	=40	=40	=40	=40	=40	=40	=40	=40	=40	=40	=40	=40	=40	=40
1G	-con-	des-	de	1B-i	-con-	des-	de	4d\	-con-	des-	de	0r	.	.	.	0r	.	.	.
.	.	.	.	.	.	.	.	4G/	.	.	.	.	.	.	.	.	.	.	.
.	.	.	.	.	.	.	.	2.g\	.	.	.	.	.	.	.	.	.	.	.
1D	-for-	-tour-	cuer	1A	-for-	-tour-	cuer	.	.	.	.	.	.	.	.	.	.	.	.
.	.	.	.	.	.	.	.	4f#i\	.	.	.	.	.	.	.	.	.	.	.
.	.	.	.	.	.	.	.	4f#i\	-for-	-tour-	cuer	.	.	.	.	.	.	.	.
.	.	.	.	.	.	.	.	4e\	.	.	.	.	.	.	.	.	.	.	.
=41	=41	=41	=41	=41	=41	=41	=41	=41	=41	=41	=41	=41	=41	=41	=41	=41	=41	=41	=41
0GG	-ter,	-ner,	cler,	0G	-ter,	-ner,	cler,	1g	-ter,	-ner,	cler,	1.B-	Me	Puis	Qu'a	0r	.	.	.
.	.	.	.	.	.	.	.	[1d	Me	Puis	Qu'a	.	.	.	.	.	.	.	.
.	.	.	.	.	.	.	.	.	.	.	.	2B-i\	ren-	qu'a	toy	.	.	.	.
=42	=42	=42	=42	=42	=42	=42	=42	=42	=42	=42	=42	=42	=42	=42	=42	=42	=42	=42	=42
1.D	Me	Puis	Qu'a	1r	.	.	.	2d\]	.	.	.	1B-i	-dre a	toy	me	1.f	Me	Puis	Qu'a
.	.	.	.	.	.	.	.	2d\	ren-	qu'a	toy	.	.	.	.	.	.	.	.
.	.	.	.	2r	.	.	.	1d	-dre a	toy	me	1A	toy	suis	rend	.	.	.	.
2D\	ren-	qu'a	toy	2D	Me	Puis	Qu'a	.	.	.	.	.	.	.	.	2f/	ren-	qu'a	toy
=43	=43	=43	=43	=43	=43	=43	=43	=43	=43	=43	=43	=43	=43	=43	=43	=43	=43	=43	=43
1D	-dre a	toy	me	2.F	ren-	qu'a	toy	1A	toy,	suis,	rend,	0r	.	.	.	1f	-dre a	toy	me
.	.	.	.	4G	.	.	.	.	.	.	.	.	.	.	.	.	.	.	.
1AA	toy,	suis,	rend,	1A	-dre a	toy	me	2c\	me	puis	qu'a	.	.	.	.	1e	toy	suis	rend
.	.	.	.	.	.	.	.	2c\	ren-	qu'a	toy	.	.	.	.	.	.	.	.
=44	=44	=44	=44	=44	=44	=44	=44	=44	=44	=44	=44	=44	=44	=44	=44	=44	=44	=44	=44
2C/	me	puis	qu'a	1E	toy,	suis,	rend,	1c	-dre a	toy	me	2r	.	.	.	0r	.	.	.
2C/	ren-	qu'a	toy	.	.	.	.	.	.	.	.	2c\	le	la	la	.	.	.	.
1C	-dre a	toy	me	2r	.	.	.	1G	toy,	suis,	rend,	2c\	sur-	res-	res-	.	.	.	.
.	.	.	.	[2G\	me	puis	qu'a	.	.	.	.	2c\	-plus	-te	-te	.	.	.	.
=45	=45	=45	=45	=45	=45	=45	=45	=45	=45	=45	=45	=45	=45	=45	=45	=45	=45	=45	=45
2GG/	toy	suis	rend	2G\]	.	.	.	1r	.	.	.	2B-i\	de	de	de	2r	.	.	.
2C/	le	la	la	2G\	ren-	qu'a	toy	.	.	.	.	2G/	ma	ma	ma	2g/	le	la	la
2BB-i/	sur-	res-	res-	1G	-dre a	toy	me	[1d	me	puis	qu'a	[1B-i	vi-	vi-	vi-	2g/	sur-	res-	res-
2GG/	-plus	-te	-te	.	.	.	.	.	.	.	.	.	.	.	.	2g/	-plus	-te	-te
=46	=46	=46	=46	=46	=46	=46	=46	=46	=46	=46	=46	=46	=46	=46	=46	=46	=46	=46	=46
2D\	de	de	de	2D\	toy	suis	rend	2d\]	.	.	.	1B-]	.	.	.	2f/	de	de	de
2GG/	ma	ma	ma	2G\	le	la	la	2d\	ren-	qu'a	toy	.	.	.	.	2d/	mal	ma	ma
[1D	vi-	vi-	vi-	2F\	sur-	res-	res-	1d	-dre a	toy	me	1A	-e,	-e,	-e,	[1f	vi-	vi-	vi-
.	.	.	.	2D\	-plus	-te	-te	.	.	.	.	.	.	.	.	.	.	.	.
=47	=47	=47	=47	=47	=47	=47	=47	=47	=47	=47	=47	=47	=47	=47	=47	=47	=47	=47	=47
1D]	.	.	.	2F\	de	de	de	1A	toy	suis	rend	2r	.	.	.	1f]	.	.	.
.	.	.	.	2D\	ma	ma	ma	.	.	.	.	2d\	le	la	la	.	.	.	.
1AA	-e,	-e,	-e,	1A	vi-	vi-	vi-	1r	.	.	.	2c\	sur-	res-	res-	1e	-e,	-e,	-e,
.	.	.	.	.	.	.	.	.	.	.	.	2c\	-plus	-te	-te	.	.	.	.
=48	=48	=48	=48	=48	=48	=48	=48	=48	=48	=48	=48	=48	=48	=48	=48	=48	=48	=48	=48
2r	.	.	.	1D	-e,	-e,	-e,	2r	.	.	.	2d\	de	de	de	2r	.	.	.
2F\	le	la	la	.	.	.	.	2d\	le	la	la	2A/	ma	ma	ma	2a/	le	la	la
2G\	sur-	res-	res-	1r	.	.	.	2d\	sur-	res-	res-	1B-	vi-	vi-	vi-	2g/	sur-	res-	res-
2GG/	-plus	-te	-te	.	.	.	.	2d\	-plus	-te	-te	.	.	.	.	2g/	-plus	-te	-te
=49	=49	=49	=49	=49	=49	=49	=49	=49	=49	=49	=49	=49	=49	=49	=49	=49	=49	=49	=49
2D\	de	de	de	1r	.	.	.	2f\	de	de	de	[0Al	-e.	-e.	-e.	2a/	de	de	de
2C/	ma	ma	ma	.	.	.	.	2e\	ma	ma	ma	.	.	.	.	2e/	mal	ma	ma
1D	vi-	vi-	vi-	2r	.	.	.	1d	vi-	vi-	vi-	.	.	.	.	1f	vi-	vi-	vi-
.	.	.	.	2d\	le	la	la	.	.	.	.	.	.	.	.	.	.	.	.
=50	=50	=50	=50	=50	=50	=50	=50	=50	=50	=50	=50	=50	=50	=50	=50	=50	=50	=50	=50
[0AAl	-e.	-e.	-e.	2e\	sur-	res-	res-	2c\	-e,	-e,	-e,	0A_	.	.	.	[0el	-e.	-e.	-e.
.	.	.	.	2c\	-plus	-te	-te	2A/	le	la	la	.	.	.	.	.	.	.	.
.	.	.	.	2A\	de	de	de	2c\	sur-	res-	res-	.	.	.	.	.	.	.	.
.	.	.	.	[2c\	ma	ma	ma	2A/	-plus	-te	-te	.	.	.	.	.	.	.	.
=51	=51	=51	=51	=51	=51	=51	=51	=51	=51	=51	=51	=51	=51	=51	=51	=51	=51	=51	=51
0AA_	.	.	.	4c\]	.	.	.	2c\	de	de	de	0A_	.	.	.	0e_	.	.	.
.	.	.	.	4B\	.	.	.	.	.	.	.	.	.	.	.	.	.	.	.
.	.	.	.	1A	vi-	vi-	vi-	2c\	mal	ma	ma	.	.	.	.	.	.	.	.
.	.	.	.	.	.	.	.	2.A/	vi-	vi-	vi-	.	.	.	.	.	.	.	.
.	.	.	.	4G\	.	.	.	.	.	.	.	.	.	.	.	.	.	.	.
.	.	.	.	4F\	.	.	.	4B\	.	.	.	.	.	.	.	.	.	.	.
=52	=52	=52	=52	=52	=52	=52	=52	=52	=52	=52	=52	=52	=52	=52	=52	=52	=52	=52	=52
0AA]	.	.	.	0El	-e.	-e.	-e.	0cl	-e.	-e.	-e.	0A]	.	.	.	0e]	.	.	.
==	==	==	==	==	==	==	==	==	==	==	==	==	==	==	==	==	==	==	==
*-	*-	*-	*-	*-	*-	*-	*-	*-	*-	*-	*-	*-	*-	*-	*-	*-	*-	*-	*-
!!!RDF**kern: l=long note in original notation
!!!RDF**kern: i=editorial accidental
!!!RDF**kern: V=start of tuplet marker
!!!RDF**kern: Z=end of tuplet marker
!!!ENC: Will Watson 30/10/2011
!!!END: 2011/10/30/
!!!EED: Jesse Rodin
!!!EEV: 2011/12/01/
!!attribution-level@Jos: 2 (provisionally attributable [parentheses checkmark])
!!!ONB: Translated from MusicXML and edited on 2011/12/01/ by Craig Sapp
!!muse2ps:  C^@{COM}\!!!COM:	Josquin des Prez
!!!CDT:	~1450-1521/08/27
!!!OTL@@LAT: Pater noster
!!!OTL2@@LAT: Ave Maria
!!!AGN:	Motet
!!!SCT:	NJE 20.9
!!!SCA:	New Josquin Edition 20.9
!!!voices:	6
**kern	**text	**kern	**text	**kern	**text	**kern	**text	**kern	**text	**kern	**text
*staff6	*staff6	*staff5	*staff5	*staff4	*staff4	*staff3	*staff3	*staff2	*staff2	*staff1	*staff1
*Ivox	*	*Ivox	*	*Ivox	*	*Ivox	*	*Ivox	*	*Ivox	*
*I"Bassus	*	*I"Tenor2	*	*I"Tenor1	*	*I"Altus2	*	*I"Altus1	*	*I"Superius	*
*I'B	*	*I'T2	*	*I'T1	*	*I'A2	*	*I'A1	*	*I'S	*
*>[A,B]	*>[A,B]	*>[A,B]	*>[A,B]	*>[A,B]	*>[A,B]	*>[A,B]	*>[A,B]	*>[A,B]	*>[A,B]	*>[A,B]	*>[A,B]
*>A	*>A	*>A	*>A	*>A	*>A	*>A	*>A	*>A	*>A	*>A	*>A
*clefF4	*	*clefGv2	*	*clefGv2	*	*clefGv2	*	*clefGv2	*	*clefG2	*
*k[b-]	*	*k[b-]	*	*k[b-]	*	*k[b-]	*	*k[b-]	*	*k[b-]	*
*M2/1	*	*M2/1	*	*M2/1	*	*M2/1	*	*M2/1	*	*M2/1	*
*met(C|)	*	*met(C|)	*	*met(C|)	*	*met(C|)	*	*met(C|)	*	*met(C|)	*
!!section: Prima pars: Pater noster
=1-	=1-	=1-	=1-	=1-	=1-	=1-	=1-	=1-	=1-	=1-	=1-
!	!	!LO:TX:Z=12:X=-40:t=Canon at the upper 5th (T2-->T1, 3 breves)	!	!	!	!	!	!	!	!	!
0r	.	0r	.	0r	.	0r	.	0g	Pa-	0g	Pa-
=2	=2	=2	=2	=2	=2	=2	=2	=2	=2	=2	=2
0r	.	0r	.	0r	.	0G	Pa-	1g	-ter	1g	-ter
.	.	.	.	.	.	.	.	[1g	nos-	[1b-	nos-
=3	=3	=3	=3	=3	=3	=3	=3	=3	=3	=3	=3
0r	.	0r	.	0r	.	1G	-ter	1g]	.	1b-]	.
.	.	.	.	.	.	[1d	nos-	1f	-ter,	1a	-ter,
=4	=4	=4	=4	=4	=4	=4	=4	=4	=4	=4	=4
0r	.	0G	Pa-	0r	.	1d]	.	1r	.	0r	.
.	.	.	.	.	.	1d	-ter,	1g	pa-	.	.
=5	=5	=5	=5	=5	=5	=5	=5	=5	=5	=5	=5
0GG	Pa-	1G	-ter	0r	.	0r	.	1g	-ter	0r	.
.	.	[1B-	nos-	.	.	.	.	[1g	nos-	.	.
=6	=6	=6	=6	=6	=6	=6	=6	=6	=6	=6	=6
1GG	-ter	1B-]	.	0r	.	0r	.	1g]	.	0r	.
[1D	nos-	1A	-ter,	.	.	.	.	1f	-ter,	.	.
=7	=7	=7	=7	=7	=7	=7	=7	=7	=7	=7	=7
1D]	.	0r	.	0d	Pa-	0r	.	0r	.	0dd	pa-
1D	-ter,	.	.	.	.	.	.	.	.	.	.
=8	=8	=8	=8	=8	=8	=8	=8	=8	=8	=8	=8
0r	.	0r	.	1d	-ter	0D	pa-	0r	.	1dd	-ter
.	.	.	.	[1f	nos-	.	.	.	.	[1dd	nos-
=9	=9	=9	=9	=9	=9	=9	=9	=9	=9	=9	=9
0r	.	0r	.	1f]	.	1D	-ter	0r	.	1dd]	.
.	.	.	.	1e	-ter,	[1A	nos-	.	.	1cc	-ter,
=10	=10	=10	=10	=10	=10	=10	=10	=10	=10	=10	=10
0D	pa-	0A	pa-	0r	.	1A]	.	1r	.	0r	.
.	.	.	.	.	.	1A	-ter,	1F	pa-	.	.
=11	=11	=11	=11	=11	=11	=11	=11	=11	=11	=11	=11
1D	-ter	1A	-ter	0r	.	0r	.	1F	-ter	0r	.
[1D	nos-	[1B-	nos-	.	.	.	.	[1F	nos-	.	.
=12	=12	=12	=12	=12	=12	=12	=12	=12	=12	=12	=12
1D]	.	1B-]	.	0r	.	0r	.	1F]	.	0r	.
1AA	-ter,	1A	-ter,	.	.	.	.	1E	-ter,	.	.
=13	=13	=13	=13	=13	=13	=13	=13	=13	=13	=13	=13
1C	qui	2A/	qui	0e	pa-	0r	.	0r	.	1r	.
.	.	2G/	es	.	.	.	.	.	.	.	.
1C	es	1A	in	.	.	.	.	.	.	1cc	qui
=14	=14	=14	=14	=14	=14	=14	=14	=14	=14	=14	=14
1C	in	1G	ce-	1e	-ter	1r	.	1E	qui	2cc\	es
.	.	.	.	.	.	.	.	.	.	2cc\	in
[1D	ce-	1F	-lis,	[1f	nos-	1A	qui	2D/	es	[1a	ce-
.	.	.	.	.	.	.	.	2D/	in	.	.
=15	=15	=15	=15	=15	=15	=15	=15	=15	=15	=15	=15
1D]	.	0r	.	1f]	.	2F/	es	1d	ce-	2a/]	.
.	.	.	.	.	.	2D/	in	.	.	2b-\	.
1AA	-lis,	.	.	1e	-ter,	1A	ce-	1c	-lis,	1cc	-lis,
=16	=16	=16	=16	=16	=16	=16	=16	=16	=16	=16	=16
2C/	qui	0r	.	2e\	qui	1G	-lis,	2r	.	0r	.
2GG/	es	.	.	2d\	es	.	.	2B-\	qui	.	.
1C	in	.	.	1e	in	2r	.	2c\	es	.	.
.	.	.	.	.	.	2G/	sanc-	2C/	in	.	.
=17	=17	=17	=17	=17	=17	=17	=17	=17	=17	=17	=17
1BB-	ce-	0r	.	1d	ce-	2G/	-ti-	1D	-ce-	0r	.
.	.	.	.	.	.	2G/	-fi-	.	.	.	.
1AA	-lis,	.	.	1c	-lis,	1A	-ce-	1E	lis,	.	.
=18	=18	=18	=18	=18	=18	=18	=18	=18	=18	=18	=18
0r	.	0r	.	0r	.	2G/	-tur	0r	.	1r	.
.	.	.	.	.	.	2d\	no-	.	.	.	.
.	.	.	.	.	.	2e\	-men	.	.	1g	sanc-
.	.	.	.	.	.	[2g\	tu-	.	.	.	.
=19	=19	=19	=19	=19	=19	=19	=19	=19	=19	=19	=19
0r	.	0r	.	0r	.	2g\]	.	0r	.	2g/	-ti-
.	.	.	.	.	.	4f\	.	.	.	2g/	-fi-
.	.	.	.	.	.	4e\	.	.	.	.	.
.	.	.	.	.	.	1f	.	.	.	1a	-ce-
=20	=20	=20	=20	=20	=20	=20	=20	=20	=20	=20	=20
0r	.	0r	.	0r	.	2g\	-um,	1r	.	2g/	-tur
.	.	.	.	.	.	2d\	no-	.	.	2f/	no-
.	.	.	.	.	.	2e\	-men	2r	.	2g/	-men
.	.	.	.	.	.	[2g\	tu-	2G/	sanc-	[2b-\	tu-
=21	=21	=21	=21	=21	=21	=21	=21	=21	=21	=21	=21
0r	.	0r	.	0r	.	2g\]	.	2G/	-ti-	2b-\]	.
.	.	.	.	.	.	4f\	.	2G/	-fi-	4a/	.
.	.	.	.	.	.	4e\	.	.	.	4g/	.
.	.	.	.	.	.	1f	.	1d	-ce-	1a	.
=22	=22	=22	=22	=22	=22	=22	=22	=22	=22	=22	=22
1.G	sanc-	1r	.	0r	.	0g	-um,	2G/	-tur	0g	-um,
.	.	.	.	.	.	.	.	2d\	no-	.	.
.	.	1G	sanc-	.	.	.	.	2e\	-men	.	.
2G\	-ti-	.	.	.	.	.	.	[2g\	tu-	.	.
=23	=23	=23	=23	=23	=23	=23	=23	=23	=23	=23	=23
1GG	-fi-	2G/	-ti-	0r	.	0r	.	2g\]	.	0r	.
.	.	2G/	-fi-	.	.	.	.	4f\	.	.	.
.	.	.	.	.	.	.	.	4e\	.	.	.
1D	-ce-	1A	-ce-	.	.	.	.	1f	-um,	.	.
=24	=24	=24	=24	=24	=24	=24	=24	=24	=24	=24	=24
2GG/	-tur	2G/	-tur	0r	.	1r	.	0r	.	1r	.
2D\	no-	2F/	no-	.	.	.	.	.	.	.	.
2E\	-men	2G/	-men	.	.	2r	.	.	.	1g	sanc-
[2G\	tu-	[2B-\	tu-	.	.	2G/	no-	.	.	.	.
=25	=25	=25	=25	=25	=25	=25	=25	=25	=25	=25	=25
2G\]	.	2B-\]	.	1r	.	2B-\	.	0r	.	2g/	-ti-
4F\	.	4A/	.	.	.	2c\	-men	.	.	2g/	-fi-
4E\	.	4G/	.	.	.	.	.	.	.	.	.
1D	.	1A	.	1d	sanc-	1d	tu-	.	.	1f	-ce-
=26	=26	=26	=26	=26	=26	=26	=26	=26	=26	=26	=26
2GG/	-um,	0G	-um,	2d\	-ti-	1B-	um,	2r	.	1g	-tur
2G\	no-	.	.	2d\	-fi-	.	.	2B-\	no-	.	.
2C/	-men	.	.	1e	-ce-	1r	.	2c\	.	2g/	no-
[2G\	tu-	.	.	.	.	.	.	2B-\	-men	2g/	-men
=27	=27	=27	=27	=27	=27	=27	=27	=27	=27	=27	=27
4G\]	.	0r	.	2d\	-tur	1r	.	1G	tu-	1g	tu-
4F\	.	.	.	.	.	.	.	.	.	.	.
2E\	.	.	.	2c\	no-	.	.	.	.	.	.
1D	-um,	.	.	2d\	-men	2r	.	1A	-um,	1f	-um,
.	.	.	.	[2f\	tu-	2F/	no-	.	.	.	.
=28	=28	=28	=28	=28	=28	=28	=28	=28	=28	=28	=28
1r	.	0r	.	2f\]	.	2A/	.	0r	.	1r	.
.	.	.	.	4e\	.	2B-\	-men	.	.	.	.
.	.	.	.	4d\	.	.	.	.	.	.	.
1C	Ad-	.	.	1e	.	1c	tu-	.	.	1g	ad-
=29	=29	=29	=29	=29	=29	=29	=29	=29	=29	=29	=29
1.G	-ve-	0r	.	0d	-um,	0B-	um.	1G	Ad-	1.b-	-ve-
.	.	.	.	.	.	.	.	[1d	-ve-	.	.
2G\	-ni-	.	.	.	.	.	.	.	.	2b-\	-ni-
=30	=30	=30	=30	=30	=30	=30	=30	=30	=30	=30	=30
2F\	-at	0r	.	0r	.	0r	.	2d\]	.	2a/	-at
2G\	re-	.	.	.	.	.	.	2d\	-ni-	2g/	re-
2F\	-gnum	.	.	.	.	.	.	1d	-at	2a/	-gnum
[2G\	tu-	.	.	.	.	.	.	.	.	[2b-\	tu-
=31	=31	=31	=31	=31	=31	=31	=31	=31	=31	=31	=31
4G\]	.	0r	.	0r	.	0r	.	2d\	re-	4b-\]	.
4F\	.	.	.	.	.	.	.	.	.	4a/	.
4E\	.	.	.	.	.	.	.	2d\	-gnum	4g/	.
4D\	.	.	.	.	.	.	.	.	.	4f/	.
1E	.	.	.	.	.	.	.	1c	tu-	1g	.
=32	=32	=32	=32	=32	=32	=32	=32	=32	=32	=32	=32
0D	-um,	1r	.	0r	.	0r	.	0d	-um,	0f	-um.
.	.	1A	Ad-	.	.	.	.	.	.	.	.
=33	=33	=33	=33	=33	=33	=33	=33	=33	=33	=33	=33
2r	.	1.B-	-ve-	0r	.	1G	Ad-	0r	.	0r	.
2G\	ad-	.	.	.	.	.	.	.	.	.	.
2.G\	-ve-	.	.	.	.	[1d	-ve-	.	.	.	.
.	.	2B-\	-ni-	.	.	.	.	.	.	.	.
4G\	-ni-	.	.	.	.	.	.	.	.	.	.
=34	=34	=34	=34	=34	=34	=34	=34	=34	=34	=34	=34
2F\	-at	2A/	-at	0r	.	2d\]	.	0r	.	0r	.
2G\	re-	2G/	re-	.	.	2d\	-ni-	.	.	.	.
2F\	-gnum	2A/	-gnum	.	.	1d	-at	.	.	.	.
[2G\	tu-	[2B-\	tu-	.	.	.	.	.	.	.	.
=35	=35	=35	=35	=35	=35	=35	=35	=35	=35	=35	=35
4G\]	.	4B-\]	.	1r	.	2d\	re-	0r	.	0r	.
4F\	.	4A/	.	.	.	.	.	.	.	.	.
4E\	.	4G/	.	.	.	2d\	-gnum	.	.	.	.
4D\	.	4F/	.	.	.	.	.	.	.	.	.
1E	.	1G	.	1e	Ad-	1c	tu-	.	.	.	.
=36	=36	=36	=36	=36	=36	=36	=36	=36	=36	=36	=36
2D\	-um,	0F	-um,	1.f	-ve-	1d	-um,	1D	ad-	0r	.
2D\	ad-	.	.	.	.	.	.	.	.	.	.
2.D\	-ve-	.	.	.	.	2r	.	[1A	-ve-	.	.
.	.	.	.	2f\	-ni-	2D/	ad-	.	.	.	.
4D\	-ni-	.	.	.	.	.	.	.	.	.	.
=37	=37	=37	=37	=37	=37	=37	=37	=37	=37	=37	=37
2C/	-at	0r	.	2e\	-at	2E/	-ve-	2A/]	.	0r	.
2D\	re-	.	.	2d\	re-	2F/	-ni-	2A/	-ni-	.	.
2C/	-gnum	.	.	2e\	-gnum	2E/	-at	1A	-at	.	.
[2D\	tu-	.	.	[2f\	tu-	2D/	re-	.	.	.	.
=38	=38	=38	=38	=38	=38	=38	=38	=38	=38	=38	=38
4D\]	.	0r	.	4f\]	.	1F	-gnum	2A/	re-	0r	.
4C/	.	.	.	4e\	.	.	.	.	.	.	.
4BB-/	.	.	.	4d\	.	.	.	2A/	-gnum	.	.
4AA/	.	.	.	4c\	.	.	.	.	.	.	.
1BB-	.	.	.	1d	.	1D	tu-	1G	tu-	.	.
=39	=39	=39	=39	=39	=39	=39	=39	=39	=39	=39	=39
0AA	-um.	0r	.	0c	-um,	0E	-um,	0A	-um,	1r	.
.	.	.	.	.	.	.	.	.	.	1a	Fi-
=40	=40	=40	=40	=40	=40	=40	=40	=40	=40	=40	=40
0r	.	0r	.	0r	.	2r	.	1r	.	2g/	-at
.	.	.	.	.	.	2G/	Fi-	.	.	2g/	vo-
.	.	.	.	.	.	2G/	-at	2r	.	1b-	-lun-
.	.	.	.	.	.	2G/	vo-	2d\	-Fi-	.	.
=41	=41	=41	=41	=41	=41	=41	=41	=41	=41	=41	=41
0r	.	0r	.	0r	.	2F/	-lun-	2d\	-at	1a	-tas
.	.	.	.	.	.	2D/	-tas	2d\	vo-	.	.
.	.	.	.	.	.	[1E-	tu-	2B-\	-lun-	[1g	tu-
.	.	.	.	.	.	.	.	[2c\	.	.	.
=42	=42	=42	=42	=42	=42	=42	=42	=42	=42	=42	=42
0r	.	0r	.	0r	.	1E-]	.	4c\]	.	1g]	.
.	.	.	.	.	.	.	.	4B-\	.	.	.
.	.	.	.	.	.	.	.	2G/	-tas	.	.
.	.	.	.	.	.	1D	-a,	1A	tu-	1f	-a,
=43	=43	=43	=43	=43	=43	=43	=43	=43	=43	=43	=43
0r	.	1r	.	0r	.	1d	fi-	0G	-a,	1r	.
.	.	1G	Fi-	.	.	1d	-at,	.	.	1b-	fi-
=44	=44	=44	=44	=44	=44	=44	=44	=44	=44	=44	=44
2r	.	2G/	-at	0r	.	1r	.	1d	fi-	0b-	-at,
2G\	-Fi-	2G/	vo-	.	.	.	.	.	.	.	.
2G\	-at	1B-	-lun-	.	.	2r	.	1d	-at,	.	.
2G\	vo-	.	.	.	.	2d\	fi-	.	.	.	.
=45	=45	=45	=45	=45	=45	=45	=45	=45	=45	=45	=45
2F\	-lun-	1A	-tas	0r	.	2d\	-at,	0r	.	0r	.
2D\	-tas	.	.	.	.	2d\	vo-	.	.	.	.
[1E-i	tu-	2.G/	tu-	.	.	2B-\	-lun-	.	.	.	.
.	.	.	.	.	.	[2c\	.	.	.	.	.
.	.	4F/	.	.	.	.	.	.	.	.	.
=46	=46	=46	=46	=46	=46	=46	=46	=46	=46	=46	=46
1E-]	.	1G	.	1r	.	4c\]	.	1c	fi-	0r	.
.	.	.	.	.	.	4B-\	.	.	.	.	.
.	.	.	.	.	.	2G/	-tas	.	.	.	.
1D	-a,	1F	-a,	1d	Fi-	1A	tu-	1d	-at,	.	.
=47	=47	=47	=47	=47	=47	=47	=47	=47	=47	=47	=47
2r	.	0r	.	2d\	-at	0D	-a,	1r	.	1a	fi-
2D\	fi-	.	.	2d\	vo-	.	.	.	.	.	.
2D\	-at,	.	.	1f	-lun-	.	.	2r	.	1a	-at,
2D\	vo-	.	.	.	.	.	.	2A/	fi-	.	.
=48	=48	=48	=48	=48	=48	=48	=48	=48	=48	=48	=48
2C/	-lun-	0r	.	1e	-tas	0r	.	2A/	-at	2r	.
2AA/	-tas	.	.	.	.	.	.	2A/	vo-	2cc\	fi-
[1BB-	tu-	.	.	2.d\	tu-	.	.	2F/	-lun-	2dd\	-at
.	.	.	.	.	.	.	.	[2G/	.	2dd\	vo-
.	.	.	.	4c\	.	.	.	.	.	.	.
=49	=49	=49	=49	=49	=49	=49	=49	=49	=49	=49	=49
1BB-]	.	0r	.	1d	.	0r	.	4G/]	.	2dd\	-lun-
.	.	.	.	.	.	.	.	4F/	.	.	.
.	.	.	.	.	.	.	.	2D/	-tas	2b-\	-tas
1AA	-a,	.	.	1c	-a,	.	.	1E	tu-	1cc	tu-
=50	=50	=50	=50	=50	=50	=50	=50	=50	=50	=50	=50
1BB-	si-	0r	.	0r	.	1G	si-	2D/	-a,	1b-	-a,
.	.	.	.	.	.	.	.	2D/	si-	.	.
2BB-/	-cut	.	.	.	.	2G/	-cut	2D/	-cut	1r	.
2BB-/	in	.	.	.	.	2G/	in	2D/	in	.	.
=51	=51	=51	=51	=51	=51	=51	=51	=51	=51	=51	=51
1C	ce-	0r	.	0r	.	1A	ce-	1E	ce-	0r	.
1GG	-lo	.	.	.	.	1G	-lo	2D/	-lo	.	.
.	.	.	.	.	.	.	.	2B-\	et	.	.
=52	=52	=52	=52	=52	=52	=52	=52	=52	=52	=52	=52
2D\	et	0r	.	0r	.	2F/	et	2A/	in	0r	.
2E-i\	in	.	.	.	.	2G/	in	2.G/	ter-	.	.
1D	ter-	.	.	.	.	1A	ter-	.	.	.	.
.	.	.	.	.	.	.	.	4F#i/	.	.	.
.	.	.	.	.	.	.	.	4F#i/	.	.	.
.	.	.	.	.	.	.	.	4E/	.	.	.
=53	=53	=53	=53	=53	=53	=53	=53	=53	=53	=53	=53
0GG	-ra,	1G	si-	0r	.	1G	-ra,	1G	-ra,	2r	.
.	.	.	.	.	.	.	.	.	.	2b-\	si-
.	.	2G/	-cut	.	.	1r	.	1r	.	2b-\	-cut
.	.	2G/	in	.	.	.	.	.	.	2b-\	in
=54	=54	=54	=54	=54	=54	=54	=54	=54	=54	=54	=54
0r	.	1A	ce-	0r	.	0r	.	0r	.	1cc	ce-
.	.	1G	-lo	.	.	.	.	.	.	2b-\	-lo
.	.	.	.	.	.	.	.	.	.	2g/	et
=55	=55	=55	=55	=55	=55	=55	=55	=55	=55	=55	=55
0r	.	2F/	et	0r	.	0r	.	1r	.	2a/	in
.	.	2G/	in	.	.	.	.	.	.	2.g/	ter-
.	.	1A	ter-	.	.	.	.	1D	si-	.	.
.	.	.	.	.	.	.	.	.	.	4f#i/	.
.	.	.	.	.	.	.	.	.	.	4f#i/	.
.	.	.	.	.	.	.	.	.	.	4e/	.
=56	=56	=56	=56	=56	=56	=56	=56	=56	=56	=56	=56
1GG	si-	[0G	-ra,	1d	si-	1B-	si-	2D/	-cut	0g	-ra,
.	.	.	.	.	.	.	.	2D/	in	.	.
2GG/	-cut	.	.	2d\	-cut	2B-\	-cut	1G	ce-	.	.
2GG/	in	.	.	2d\	in	2B-\	in	.	.	.	.
=57	=57	=57	=57	=57	=57	=57	=57	=57	=57	=57	=57
1C	ce-	0G_	.	1e	ce-	1c	ce-	1E	-lo	0r	.
1GG	-lo	.	.	1d	-lo	1B-	-lo	2r	.	.	.
.	.	.	.	.	.	.	.	[2G/	et	.	.
=58	=58	=58	=58	=58	=58	=58	=58	=58	=58	=58	=58
2C/	et	0G]	.	2c\	et	2e-\	et	2G/]	.	0r	.
2BB-/	in	.	.	2d\	in	2d\	in	2G/	in	.	.
1C	ter-	.	.	1e	ter-	1c	ter-	2.E/	ter-	.	.
.	.	.	.	.	.	.	.	4F/	.	.	.
=59	=59	=59	=59	=59	=59	=59	=59	=59	=59	=59	=59
0GG	-ra.	0r	.	[0d	-ra,	1B-	-ra.	0G	-ra,	1r	.
.	.	.	.	.	.	1r	.	.	.	1g	Pa-
=60	=60	=60	=60	=60	=60	=60	=60	=60	=60	=60	=60
2r	.	0r	.	0d_	.	1G	Pa-	0r	.	1g	-nem
1G	Pa-	.	.	.	.	.	.	.	.	.	.
.	.	.	.	.	.	1G	-nem	.	.	[1b-	no-
2G\	-nem	.	.	.	.	.	.	.	.	.	.
=61	=61	=61	=61	=61	=61	=61	=61	=61	=61	=61	=61
1G	nos-	0r	.	0d]	.	2.B-\	nos-	0r	.	1b-]	.
.	.	.	.	.	.	4c\	.	.	.	.	.
1D	-trum,	.	.	.	.	1d	-trum,	.	.	1a	-strum,
=62	=62	=62	=62	=62	=62	=62	=62	=62	=62	=62	=62
0r	.	1r	.	0r	.	2r	.	1G	Pa-	2r	.
.	.	.	.	.	.	2B-\	quo-	.	.	2dd\	quo-
.	.	1G	Pa-	.	.	2B-\	-ti-	1G	-nem	2dd\	-ti-
.	.	.	.	.	.	[2B-\	-di-	.	.	[2dd\	-di-
=63	=63	=63	=63	=63	=63	=63	=63	=63	=63	=63	=63
1GG	pa-	1G	-nem	0r	.	4B-\]	.	2.B-\	no-	4dd\]	.
.	.	.	.	.	.	4A/	.	.	.	4cc\	.
.	.	.	.	.	.	1G	-a-	.	.	1b-	-a-
.	.	.	.	.	.	.	.	4c\	.	.	.
1GG	-nem	[1B-	no-	.	.	.	.	1d	-strum,	.	.
.	.	.	.	.	.	4F/	.	.	.	4a/	.
.	.	.	.	.	.	4E/	.	.	.	4g/	.
=64	=64	=64	=64	=64	=64	=64	=64	=64	=64	=64	=64
2.BB-/	nos-	1B-]	.	0r	.	0D	-num,	0r	.	0f	-num,
4C/	.	.	.	.	.	.	.	.	.	.	.
1D	-trum	1A	-strum,	.	.	.	.	.	.	.	.
=65	=65	=65	=65	=65	=65	=65	=65	=65	=65	=65	=65
2r	.	1B-	quo-	1r	.	0r	.	0r	.	2r	.
2GG/	quo-	.	.	.	.	.	.	.	.	2b-\	quo-
2GG/	-ti-	2B-\	-ti-	1d	Pa-	.	.	.	.	2b-\	-ti-
2GG/	-di-	2B-\	-di-	.	.	.	.	.	.	2b-\	-di-
=66	=66	=66	=66	=66	=66	=66	=66	=66	=66	=66	=66
2.BB-/	-a-	1G	-a-	1d	-nem	2r	.	2r	.	1b-	-a-
.	.	.	.	.	.	2d\	quo-	2D/	quo-	.	.
4C/	.	.	.	.	.	.	.	.	.	.	.
1D	-num,	1F	-num,	[1f	no-	2d\	-ti-	2D/	-ti-	1a	-num,
.	.	.	.	.	.	2d\	-di-	2D/	-di-	.	.
=67	=67	=67	=67	=67	=67	=67	=67	=67	=67	=67	=67
0r	.	0r	.	1f]	.	1d	-a-	2.F/	-a-	0r	.
.	.	.	.	.	.	.	.	4G/	.	.	.
.	.	.	.	1e	-strum,	1c	-num,	1A	-num	.	.
=68	=68	=68	=68	=68	=68	=68	=68	=68	=68	=68	=68
1D	quo-	0r	.	1f	quo-	0r	.	2r	.	2r	.
.	.	.	.	.	.	.	.	2D/	quo-	2a/	quo-
2D\	-ti-	.	.	2f\	-ti-	.	.	2F/	-ti-	2a/	-ti-
2D\	-di-	.	.	2f\	-di-	.	.	2D/	-di-	2a/	-di-
=69	=69	=69	=69	=69	=69	=69	=69	=69	=69	=69	=69
1D	-a-	0r	.	1d	-a-	0r	.	2.F/	-a-	1f	-a-
.	.	.	.	.	.	.	.	4G/	.	.	.
1AA	-num,	.	.	1c	-num,	.	.	1A	-num,	1e	-num
=70	=70	=70	=70	=70	=70	=70	=70	=70	=70	=70	=70
2r	.	1G	da	0r	.	1B-	da	1r	.	0r	.
2GG/	da	.	.	.	.	.	.	.	.	.	.
1AA	no-	1F	no-	.	.	1c	no-	2r	.	.	.
.	.	.	.	.	.	.	.	2C/	da	.	.
=71	=71	=71	=71	=71	=71	=71	=71	=71	=71	=71	=71
1GG	-bis	1G	-bis	0r	.	1B-	-bis	2D/	no-	0r	.
.	.	.	.	.	.	.	.	2D/	-bis	.	.
[1C	ho-	[1A	ho-	.	.	[1c	ho-	[1E	ho-	.	.
=72	=72	=72	=72	=72	=72	=72	=72	=72	=72	=72	=72
2C/]	.	2A/]	.	0r	.	2c\]	.	2E/]	.	0r	.
2GG/	-di-	2G/	-di-	.	.	2B-\	-di-	2D/	-di-	.	.
1GG	-e,	1G	-e,	.	.	1B-	-e,	1D	-e,	.	.
=73	=73	=73	=73	=73	=73	=73	=73	=73	=73	=73	=73
0r	.	0r	.	1d	da	1r	.	1D	da	2r	.
.	.	.	.	.	.	.	.	.	.	2f/	da
.	.	.	.	1c	no-	2r	.	1E	no-	1g	no-
.	.	.	.	.	.	2G/	da	.	.	.	.
=74	=74	=74	=74	=74	=74	=74	=74	=74	=74	=74	=74
0r	.	0r	.	1d	-bis	2A/	no-	1D	-bis	1f	-bis
.	.	.	.	.	.	2A/	-bis	.	.	.	.
.	.	.	.	[1e	ho-	[1B-	ho-	[1G	ho-	[1g	ho-
=75	=75	=75	=75	=75	=75	=75	=75	=75	=75	=75	=75
0r	.	0r	.	2e\]	.	2B-\]	.	2G/]	.	2g/]	.
.	.	.	.	2d\	-di-	2A/	-di-	2D/	-di-	2f/	-di-
.	.	.	.	1d	-e,	1A	-e,	1D	-e,	1f	-e,
=76	=76	=76	=76	=76	=76	=76	=76	=76	=76	=76	=76
2r	.	1G	et	0r	.	2r	.	2r	.	0r	.
2GG/	et	.	.	.	.	2d\	et	2D/	et	.	.
2BB-/	di-	2G/	di-	.	.	2d\	di-	2D/	di-	.	.
2BB-/	-mit-	2G/	-mit-	.	.	2d\	-mit-	2D/	-mit-	.	.
=77	=77	=77	=77	=77	=77	=77	=77	=77	=77	=77	=77
1AA	-te	1A	-te	0r	.	1c	-te	1E	-te	0r	.
[1GG	no-	[1B-	no-	.	.	[1d	no-	[1G	no-	.	.
=78	=78	=78	=78	=78	=78	=78	=78	=78	=78	=78	=78
1GG]	.	1B-]	.	0r	.	1d]	.	1G]	.	1r	.
1D	-bis	1A	-bis	.	.	1d	-bis	1F	-bis	2r	.
.	.	.	.	.	.	.	.	.	.	2dd\	et
=79	=79	=79	=79	=79	=79	=79	=79	=79	=79	=79	=79
1BB-	de-	2r	.	1d	et	0r	.	2r	.	2dd\	di-
.	.	2B-\	de-	.	.	.	.	2F/	de-	2dd\	-mit-
2BB-/	-bi-	2B-\	-bi-	2d\	di-	.	.	2F/	-bi-	1dd	-te
2BB-/	-ta	2B-\	-ta	2d\	-mit-	.	.	2G/	-ta	.	.
=80	=80	=80	=80	=80	=80	=80	=80	=80	=80	=80	=80
1C	nos-	1G	nos-	1e	-te	1r	.	1E	nos-	1cc	no-
2D\	-tra,	1F	-tra,	[1f	no-	2r	.	2D/	-tra,	2a/	-bis
2BB-/	de-	.	.	.	.	2B-\	de-	2D/	de-	2dd\	de-
=81	=81	=81	=81	=81	=81	=81	=81	=81	=81	=81	=81
2BB-/	-bi-	0r	.	1f]	.	2B-\	-bi-	2F/	-bi-	2dd\	-bi-
2BB-/	-ta	.	.	.	.	2B-\	-ta	2D/	-ta	2dd\	-ta
1C	nos-	.	.	1e	-bis	1G	nos-	1E	nos-	1cc	nos-
=82	=82	=82	=82	=82	=82	=82	=82	=82	=82	=82	=82
1D	-tra,	0r	.	2r	.	1F	-tra,	0D	-tra,	2.a/	.
.	.	.	.	2f\	de-	.	.	.	.	.	.
.	.	.	.	.	.	.	.	.	.	4g/	.
2r	.	.	.	2f\	-bi-	2r	.	.	.	2a/	.
2BB-/	de-	.	.	2f\	-ta	2B-\	de-	.	.	[2b-\	.
=83	=83	=83	=83	=83	=83	=83	=83	=83	=83	=83	=83
2BB-/	-bi-	0r	.	1d	nos-	2B-\	-bi-	0r	.	4b-\]	.
.	.	.	.	.	.	.	.	.	.	4a/	.
2BB-/	-ta	.	.	.	.	2B-\	-ta	.	.	4g/	.
.	.	.	.	.	.	.	.	.	.	4f/	.
1C	nos-	.	.	1c	-tra,	1G	nos-	.	.	4e/	.
.	.	.	.	.	.	.	.	.	.	4f/	.
.	.	.	.	.	.	.	.	.	.	4g/	.
.	.	.	.	.	.	.	.	.	.	4e/	.
=84	=84	=84	=84	=84	=84	=84	=84	=84	=84	=84	=84
0D	-tra,	1r	.	0r	.	0F	-tra,	0r	.	0f	-tra,
.	.	1F	sic	.	.	.	.	.	.	.	.
=85	=85	=85	=85	=85	=85	=85	=85	=85	=85	=85	=85
1BB-	sic	1F	ut	0r	.	0r	.	1D	sic	0r	.
1BB-	ut	1G	et	.	.	.	.	1D	ut	.	.
=86	=86	=86	=86	=86	=86	=86	=86	=86	=86	=86	=86
1C	et	1A	nos	0r	.	1r	.	1E	et	1r	.
1D	nos	1F	di-	.	.	1d	sic	1D	nos,	1a	sic
=87	=87	=87	=87	=87	=87	=87	=87	=87	=87	=87	=87
1GG	di-	1.G	-mit-	1r	.	1d	ut	0r	.	1b-	ut
[1C	-mit-	.	.	1c	sic-	[1e	et	.	.	[1cc	et
.	.	2G/	-ti-	.	.	.	.	.	.	.	.
=88	=88	=88	=88	=88	=88	=88	=88	=88	=88	=88	=88
2C/]	.	0G	-mus	1c	-ut	1e]	.	1r	.	1cc]	.
2C/	-ti-	.	.	.	.	.	.	.	.	.	.
1GG	-mus	.	.	1d	et	1d	nos	1G	sic	1b-	nos
=89	=89	=89	=89	=89	=89	=89	=89	=89	=89	=89	=89
0r	.	0r	.	1e	nos	0r	.	1G	ut	0r	.
.	.	.	.	1c	di-	.	.	1A	et	.	.
=90	=90	=90	=90	=90	=90	=90	=90	=90	=90	=90	=90
0r	.	0r	.	1.d	-mit-	0r	.	2F/	nos	1a	di-
.	.	.	.	.	.	.	.	2D/	di-	.	.
.	.	.	.	.	.	.	.	[1G	-mit-	[1b-	-mit-
.	.	.	.	2d\	-ti-	.	.	.	.	.	.
=91	=91	=91	=91	=91	=91	=91	=91	=91	=91	=91	=91
1r	.	0r	.	0d	-mus	1B-	di-	2G/]	.	2b-\]	.
.	.	.	.	.	.	.	.	2G/	-ti-	2b-\	-ti-
[1GG	de-	.	.	.	.	[1B-	-mit-	1G	-mus	1b-	-mus
=92	=92	=92	=92	=92	=92	=92	=92	=92	=92	=92	=92
2GG/]	.	1.G	de-	0r	.	2B-\]	.	2r	.	0r	.
2GG/	-bi-	.	.	.	.	2B-\	-ti-	2G/	de-	.	.
1E-	-to-	.	.	.	.	1B-	-mus	2G/	-bi-	.	.
.	.	2G/	-bi-	.	.	.	.	2G/	-to-	.	.
=93	=93	=93	=93	=93	=93	=93	=93	=93	=93	=93	=93
2D\	-ri-	1A	-to-	0r	.	0r	.	2F/	-ri-	0r	.
2.C/	-bus	.	.	.	.	.	.	2.E/	-bus	.	.
.	.	1G	-ri-	.	.	.	.	.	.	.	.
4BB-/	.	.	.	.	.	.	.	4D/	.	.	.
2GG/	.	.	.	.	.	.	.	[2D/	nos-	.	.
=94	=94	=94	=94	=94	=94	=94	=94	=94	=94	=94	=94
1AA	nos-	1F	-bus	0r	.	1r	.	2D/]	.	1r	.
.	.	.	.	.	.	.	.	2C/	.	.	.
1GG	-tris,	[1G	nos-	.	.	[1B-	de-	1D	-tris,	2r	.
.	.	.	.	.	.	.	.	.	.	[2dd\	de-
=95	=95	=95	=95	=95	=95	=95	=95	=95	=95	=95	=95
0r	.	1G]	.	1.d	de-	2B-\]	.	0r	.	2dd\]	.
.	.	.	.	.	.	2B-\	-bi-	.	.	2dd\	-bi-
.	.	1G	-tris,	.	.	2B-\	-to-	.	.	2dd\	-to-
.	.	.	.	2d\	-bi-	2B-\	-ri-	.	.	2dd\	-ri-
=96	=96	=96	=96	=96	=96	=96	=96	=96	=96	=96	=96
0r	.	0r	.	1e	-to-	2A/	-bus	0r	.	2cc\	-bus
.	.	.	.	.	.	2.G/	nos-	.	.	2.b-\	nos-
.	.	.	.	1d	-ri-	.	.	.	.	.	.
.	.	.	.	.	.	4F/	.	.	.	4a/	.
.	.	.	.	.	.	2D/	.	.	.	2f/	.
=97	=97	=97	=97	=97	=97	=97	=97	=97	=97	=97	=97
0r	.	0r	.	1c	-bus	1E	.	2r	.	1g	.
.	.	.	.	.	.	.	.	2G/	de-	.	.
.	.	.	.	[1d	nos-	1D	-tris,	2A/	-bi-	1f	-tris,
.	.	.	.	.	.	.	.	2A/	-to-	.	.
=98	=98	=98	=98	=98	=98	=98	=98	=98	=98	=98	=98
0r	.	0G	Et	1d]	.	1r	.	2B-\	-ri-	1g	Et
.	.	.	.	.	.	.	.	2G/	-bus	.	.
.	.	.	.	1d	-tris,	[1d	Et	1B-	nos-	1d	ne
=99	=99	=99	=99	=99	=99	=99	=99	=99	=99	=99	=99
1D	Et	1D	ne	0r	.	1d]	.	0A	-tris,	2.f/	nos
.	.	.	.	.	.	.	.	.	.	4g/	.
1D	ne	1F	nos	.	.	1A	ne	.	.	2a/	.
.	.	.	.	.	.	.	.	.	.	2d/	in-
=100	=100	=100	=100	=100	=100	=100	=100	=100	=100	=100	=100
2C/	nos	1G	in-	0r	.	2c\	nos	0r	.	2e/	-du-
2E\	in-	.	.	.	.	2c\	in-	.	.	1g	.
[1D	-du-	[1A	-du-	.	.	1d	-du-	.	.	.	.
.	.	.	.	.	.	.	.	.	.	4f#i/	.
.	.	.	.	.	.	.	.	.	.	4e/	.
=101	=101	=101	=101	=101	=101	=101	=101	=101	=101	=101	=101
1D]	.	1A]	.	0d	Et	1D	-cas	1r	.	1f#i	.
1GG	-cas	1G	-cas	.	.	1G	in	2r	.	1g	-cas
.	.	.	.	.	.	.	.	2d\	Et	.	.
=102	=102	=102	=102	=102	=102	=102	=102	=102	=102	=102	=102
1D	in	1r	.	1A	ne	1F	temp-	2f\	ne	1r	.
.	.	.	.	.	.	.	.	2f\	nos	.	.
1C	temp-	1G	in	1c	nos	[1G	-ta-	1e	in-	1g	in
=103	=103	=103	=103	=103	=103	=103	=103	=103	=103	=103	=103
2BB-/	-ta-	1G	temp-	1d	in-	2G/]	.	1d	-du-	1g	temp-
2GG/	-ti-	.	.	.	.	2G/	-ti-	.	.	.	.
[1C	-o-	[1G	-ta-	[1e	-du-	2.E/	-o-	1c	-cas	[1g	-ta-
.	.	.	.	.	.	4F/	.	.	.	.	.
=104	=104	=104	=104	=104	=104	=104	=104	=104	=104	=104	=104
1C]	.	2G/]	.	1e]	.	1G	-nem,	2r	.	2g/]	.
.	.	2G/	-ti-	.	.	.	.	2c\	in	2g/	-ti-
1GG	-nem,	1G	-o-	1d	-cas	1r	.	2B-\	temp-	1b-	-o-
.	.	.	.	.	.	.	.	[2d\	-ta-	.	.
=105	=105	=105	=105	=105	=105	=105	=105	=105	=105	=105	=105
1D	in	0F	-nem,	1r	.	2A/	in	2d\]	.	1a	-nem,
.	.	.	.	.	.	2A/	temp-	2d\	-ti-	.	.
1D	temp-	.	.	1d	in	2A/	-ta-	1d	-o-	[1dd	in
.	.	.	.	.	.	2A/	-ti-	.	.	.	.
=106	=106	=106	=106	=106	=106	=106	=106	=106	=106	=106	=106
2D\	-ta-	1r	.	1d	temp-	2.F/	-o-	1A	-nem,	2dd\]	.
2D\	-ti-	.	.	.	.	.	.	.	.	2dd\	temp-
.	.	.	.	.	.	4D/	.	.	.	.	.
1BB-	-o-	1F	sed	[1d	-ta-	1D	-nem,	2B-\	in	2dd\	-ta-
.	.	.	.	.	.	.	.	2B-\	temp-	2dd\	-ti-
=107	=107	=107	=107	=107	=107	=107	=107	=107	=107	=107	=107
1GG	-nem,	1.G	li-	2d\]	.	1D	sed	2B-\	-ta-	2.b-\	-o-
.	.	.	.	2d\	-ti-	.	.	2B-\	-ti-	.	.
.	.	.	.	.	.	.	.	.	.	4g/	.
1GG	sed	.	.	1d	-o-	[1G	li-	2.B-\	-o-	1g	-nem,
.	.	2G/	-be-	.	.	.	.	.	.	.	.
.	.	.	.	.	.	.	.	4G/	.	.	.
=108	=108	=108	=108	=108	=108	=108	=108	=108	=108	=108	=108
1.C	li-	1G	-ra	0c	-nem,	2G/]	.	2G/	-nem,	1r	.
.	.	.	.	.	.	2G/	-be-	2G/	sed	.	.
.	.	1G	nos	.	.	1E	-ra	[1c	li-	1g	sed
2C/	-be-	.	.	.	.	.	.	.	.	.	.
=109	=109	=109	=109	=109	=109	=109	=109	=109	=109	=109	=109
1AA	-ra	0A	a	1r	.	1E	nos	2c\]	.	1.cc	li-
.	.	.	.	.	.	.	.	2c\	-be-	.	.
1AA	nos	.	.	1c	sed	1F	a	1A	-ra	.	.
.	.	.	.	.	.	.	.	.	.	2cc\	-be-
=110	=110	=110	=110	=110	=110	=110	=110	=110	=110	=110	=110
1D	a	0F	ma-	1.d	li-	1F	ma-	1A	nos	1a	-ra
1D	ma-	.	.	.	.	1D	-lo,	1d	a	1a	nos
.	.	.	.	2d\	-be-	.	.	.	.	.	.
=111	=111	=111	=111	=111	=111	=111	=111	=111	=111	=111	=111
1GG	-lo,	1G	-lo,	1d	-ra	1D	sed	1B-	ma-	1b-	a
1GG	sed	1G	sed	1d	nos	[1G	li-	1G	-lo,	1b-	ma-
=112	=112	=112	=112	=112	=112	=112	=112	=112	=112	=112	=112
1.C	li-	2.G/	li-	0e	a	2G/]	.	1G	sed	1g	-lo,
.	.	.	.	.	.	2G/	-be-	.	.	.	.
.	.	4G/	-be-	.	.	.	.	.	.	.	.
.	.	2G/	-ra	.	.	1E	-ra	[1c	li-	1g	sed
2C/	-be-	2G/	nos	.	.	.	.	.	.	.	.
=113	=113	=113	=113	=113	=113	=113	=113	=113	=113	=113	=113
1AA	-ra	0A	a	0c	ma-	1E	nos	2c\]	.	1.cc	li-
.	.	.	.	.	.	.	.	2c\	-be-	.	.
1AA	nos	.	.	.	.	1F	a	1A	-ra	.	.
.	.	.	.	.	.	.	.	.	.	2cc\	-be-
=114	=114	=114	=114	=114	=114	=114	=114	=114	=114	=114	=114
1D	a	0F	ma-	1d	-lo,	1F	ma-	1A	nos	1a	-ra
1D	ma-	.	.	1d	sed	1D	-lo,	1d	a	1a	nos
=115	=115	=115	=115	=115	=115	=115	=115	=115	=115	=115	=115
1GG	-lo,	[0Gl	-lo.	2.d\	li-	1D	sed	1B-	ma-	1b-	a
.	.	.	.	4d\	-be-	.	.	.	.	.	.
1GG	sed	.	.	2d\	-ra	[1G	li-	1G	-lo,	1b-	ma-
.	.	.	.	2d\	nos	.	.	.	.	.	.
=116	=116	=116	=116	=116	=116	=116	=116	=116	=116	=116	=116
2.C/	li-	0G_	.	0e	a	2G/]	.	1G	sed	1g	-lo,
.	.	.	.	.	.	2G/	-be-	.	.	.	.
4C/	-be-	.	.	.	.	.	.	.	.	.	.
2C/	-ra	.	.	.	.	2E/	-ra	[1c	li-	2r	.
2C/	nos	.	.	.	.	2C/	nos	.	.	2g/	sed
=117	=117	=117	=117	=117	=117	=117	=117	=117	=117	=117	=117
1C	a	0G_	.	0c	ma-	1E	a	2c\]	.	2.cc\	li-
.	.	.	.	.	.	.	.	2c\	-be-	.	.
.	.	.	.	.	.	.	.	.	.	4cc\	-be-
1C	ma-	.	.	.	.	1E	ma-	1c	-ra	2cc\	-ra
.	.	.	.	.	.	.	.	.	.	2g/	nos
=118	=118	=118	=118	=118	=118	=118	=118	=118	=118	=118	=118
[0GGl	-lo.	0G_	.	[0dl	-lo.	[0Dl	-lo.	1B-	nos	1b-	a
.	.	.	.	.	.	.	.	1B-	a	2.b-\	ma-
.	.	.	.	.	.	.	.	.	.	4g/	.
=119	=119	=119	=119	=119	=119	=119	=119	=119	=119	=119	=119
0GG_	.	0G_	.	0d_	.	0D_	.	1.B-	ma-	[0gl	-lo.
.	.	.	.	.	.	.	.	2G/	.	.	.
=120	=120	=120	=120	=120	=120	=120	=120	=120	=120	=120	=120
0GG]	.	0G]	.	0d]	.	0D]	.	0Gl	-lo.	0g]	.
!!LO:LB:i:g=z
=121||	=121||	=121||	=121||	=121||	=121||	=121||	=121||	=121||	=121||	=121||	=121||
*>B	*>B	*>B	*>B	*>B	*>B	*>B	*>B	*>B	*>B	*>B	*>B
*clefF4	*	*clefGv2	*	*clefGv2	*	*clefGv2	*	*clefGv2	*	*clefG2	*
*k[b-]	*	*k[b-]	*	*k[b-]	*	*k[b-]	*	*k[b-]	*	*k[b-]	*
*M2/1	*	*M2/1	*	*M2/1	*	*M2/1	*	*M2/1	*	*M2/1	*
*met(C|)	*	*met(C|)	*	*met(C|)	*	*met(C|)	*	*met(C|)	*	*met(C|)	*
!!section: Secunda pars: Ave Maria
!!!OMD: Secunda pars: Ave Maria
!	!	!LO:TX:Z=12:X=-40:t=Canon at the unison (T2-->T1, 3 breves)	!	!	!	!	!	!	!	!	!
0r	.	0B-	A-	0r	.	0G	A-	0r	.	0r	.
=122	=122	=122	=122	=122	=122	=122	=122	=122	=122	=122	=122
0r	.	0F	-ve	0r	.	1A	-ve	0r	.	0r	.
.	.	.	.	.	.	1D	Ma-	.	.	.	.
=123	=123	=123	=123	=123	=123	=123	=123	=123	=123	=123	=123
0r	.	0G	Ma-	0r	.	1.E	-ri-	0r	.	0r	.
.	.	.	.	.	.	2F/	.	.	.	.	.
=124	=124	=124	=124	=124	=124	=124	=124	=124	=124	=124	=124
0GG	A-	1G	-ri-	0B-	A-	0G	-a,	0G	A-	0r	.
.	.	[1d	.	.	.	.	.	.	.	.	.
=125	=125	=125	=125	=125	=125	=125	=125	=125	=125	=125	=125
1D	-ve	2d\]	.	0F	-ve	0r	.	1A	-ve	0r	.
.	.	2e\	.	.	.	.	.	.	.	.	.
1D	Ma-	2f\	.	.	.	.	.	1A	Ma-	.	.
.	.	2d\	.	.	.	.	.	.	.	.	.
=126	=126	=126	=126	=126	=126	=126	=126	=126	=126	=126	=126
1.C	-ri-	0e	.	0G	Ma-	0r	.	0c	-ri-	0r	.
2BB-/	.	.	.	.	.	.	.	.	.	.	.
=127	=127	=127	=127	=127	=127	=127	=127	=127	=127	=127	=127
1GG	-a,	0d	-a,	1G	-ri-	0G	a-	0B-	-a,	0dd	A-
1GG	gra-	.	.	[1d	.	.	.	.	.	.	.
=128	=128	=128	=128	=128	=128	=128	=128	=128	=128	=128	=128
1D	-ti-	0r	.	2d\]	.	1F	-ve	0r	.	1a	-ve
.	.	.	.	2e\	.	.	.	.	.	.	.
1D	-a	.	.	2f\	.	1F	Ma-	.	.	1a	Ma-
.	.	.	.	2d\	.	.	.	.	.	.	.
=129	=129	=129	=129	=129	=129	=129	=129	=129	=129	=129	=129
1.C	ple-	0r	.	0e	.	0G	-ri-	0r	.	0cc	-ri-
2BB-/	.	.	.	.	.	.	.	.	.	.	.
=130	=130	=130	=130	=130	=130	=130	=130	=130	=130	=130	=130
1GG	-na,	1r	.	0d	-a,	1G	a,	1r	.	1b-	-a,
1GG	gra-	1d	gra-	.	.	1G	gra-	1d	gra-	1b-	gra-
=131	=131	=131	=131	=131	=131	=131	=131	=131	=131	=131	=131
1D	-ti-	1f	-ti-	0r	.	1F	-ti-	1d	-ti-	1a	-ti-
1BB-	-a	1d	-a	.	.	1G	-a	1d	-a	1b-	-a
=132	=132	=132	=132	=132	=132	=132	=132	=132	=132	=132	=132
0C	ple-	0e	ple-	0r	.	0E	ple-	0c	ple-	0g	ple-
=133	=133	=133	=133	=133	=133	=133	=133	=133	=133	=133	=133
1D	-na,	0d	-na,	1r	.	1F	-na,	1A	-na,	1f	-na,
1GG	gra-	.	.	1d	gra-	1G	gra-	1d	gra-	1b-	gra-
=134	=134	=134	=134	=134	=134	=134	=134	=134	=134	=134	=134
1D	-ti-	0r	.	1f	-ti-	1F	-ti-	1d	-ti-	1a	-ti-
1BB-	-a	.	.	1d	-a	1G	-a	1d	-a	1b-	-a
=135	=135	=135	=135	=135	=135	=135	=135	=135	=135	=135	=135
0C	ple-	0r	.	0e	ple-	0E	ple-	0c	ple-	0g	ple-
=136	=136	=136	=136	=136	=136	=136	=136	=136	=136	=136	=136
1D	-na,	1r	.	0d	-na,	1F	-na,	1A	-na,	0f	-na,
1BB-	do-	1d	do-	.	.	1D	do-	1f	do-	.	.
=137	=137	=137	=137	=137	=137	=137	=137	=137	=137	=137	=137
1C	-mi-	1c	-mi-	0r	.	1E	-mi-	1e	-mi-	0r	.
1GG	-nus	1B-	-nus	.	.	1G	-nus	1d	-nus	.	.
=138	=138	=138	=138	=138	=138	=138	=138	=138	=138	=138	=138
0D	te-	0A	te-	0r	.	2.F/	te-	0d	te-	0r	.
.	.	.	.	.	.	4E/	.	.	.	.	.
.	.	.	.	.	.	1F	.	.	.	.	.
=139	=139	=139	=139	=139	=139	=139	=139	=139	=139	=139	=139
1GG	-cum,	0G	-cum,	1r	.	1G	-cum,	1B-	-cum,	1r	.
1GG	do-	.	.	1d	do-	1B-	do-	[1G	do-	1d	do-
=140	=140	=140	=140	=140	=140	=140	=140	=140	=140	=140	=140
1C	-mi-	0r	.	1c	-mi-	1c	-mi-	2G/]	.	1e	-mi-
.	.	.	.	.	.	.	.	2G/	-mi-	.	.
1GG	-nus	.	.	1B-	-nus	1d	-nus	1G	-nus	1g	-nus
=141	=141	=141	=141	=141	=141	=141	=141	=141	=141	=141	=141
0D	te-	0r	.	0A	te-	0d	te-	1A	te-	2.f/	te-
.	.	.	.	.	.	.	.	.	.	4e/	.
.	.	.	.	.	.	.	.	1D	-cum,	1f	.
=142	=142	=142	=142	=142	=142	=142	=142	=142	=142	=142	=142
1GG	-cum,	0d	be-	0G	-cum,	0B-	-cum,	1r	.	1g	-cum,
1GG	be-	.	.	.	.	.	.	2r	.	1b-	be-
.	.	.	.	.	.	.	.	2G/	be-	.	.
=143	=143	=143	=143	=143	=143	=143	=143	=143	=143	=143	=143
1G	-ne-	1d	-ne-	0r	.	0r	.	2.B-\	-ne-	2b-\	-ne-
.	.	.	.	.	.	.	.	.	.	2.dd\	-dic-
.	.	.	.	.	.	.	.	4c\	.	.	.
1G	-dic-	1B-	-dic-	.	.	.	.	2d\	-dic-	.	.
.	.	.	.	.	.	.	.	.	.	4cc\	.
.	.	.	.	.	.	.	.	2e\	.	[2b-\	.
=144	=144	=144	=144	=144	=144	=144	=144	=144	=144	=144	=144
0F	-ta-	0c	-ta-	0r	.	0r	.	0f	-ta-	2b-\]	.
.	.	.	.	.	.	.	.	.	.	4a/	.
.	.	.	.	.	.	.	.	.	.	4g/	.
.	.	.	.	.	.	.	.	.	.	1a	-ta-
=145	=145	=145	=145	=145	=145	=145	=145	=145	=145	=145	=145
1BB-	-tu,	0B-	-tu,	0d	be-	1r	.	0d	-tu,	1b-	-tu
1GG	be-	.	.	.	.	1B-	be-	.	.	1b-	be-
=146	=146	=146	=146	=146	=146	=146	=146	=146	=146	=146	=146
1G	-ne-	0r	.	1d	-ne-	2.B-\	-ne-	0r	.	2b-\	-ne-
.	.	.	.	.	.	.	.	.	.	2.dd\	-dic-
.	.	.	.	.	.	4c\	.	.	.	.	.
1G	-dic-	.	.	1B-	-dic-	2d\	-dic-	.	.	.	.
.	.	.	.	.	.	.	.	.	.	4cc\	.
.	.	.	.	.	.	2e\	.	.	.	[2b-\	.
=147	=147	=147	=147	=147	=147	=147	=147	=147	=147	=147	=147
0F	-ta-	0r	.	0c	-ta-	0f	-ta-	0r	.	2b-\]	.
.	.	.	.	.	.	.	.	.	.	4a/	.
.	.	.	.	.	.	.	.	.	.	4g/	.
.	.	.	.	.	.	.	.	.	.	1a	-ta-
=148	=148	=148	=148	=148	=148	=148	=148	=148	=148	=148	=148
0BB-	-tu	1r	.	0B-	-tu,	1d	-tu,	1r	.	0b-	-tu
.	.	1d	in	.	.	1f	in	1B-	in	.	.
=149	=149	=149	=149	=149	=149	=149	=149	=149	=149	=149	=149
0r	.	1.c	mu-	0r	.	2.f\	mu-	1.A	mu-	0r	.
.	.	.	.	.	.	4e\	.	.	.	.	.
.	.	.	.	.	.	2f\	-li-	.	.	.	.
.	.	2B-\	-li-	.	.	[2e\	-e-	2G/	-li-	.	.
=150	=150	=150	=150	=150	=150	=150	=150	=150	=150	=150	=150
0r	.	1A	-e-	0r	.	4e\]	.	2.F/	-e-	2r	.
.	.	.	.	.	.	4d\	.	.	.	.	.
.	.	.	.	.	.	1d	.	.	.	2f/	in
.	.	.	.	.	.	.	.	4D/	.	.	.
.	.	1G	-ri-	.	.	.	.	1E	-ri-	2g/	mu-
.	.	.	.	.	.	2c#i\	-ri-	.	.	2e/	-li-
=151	=151	=151	=151	=151	=151	=151	=151	=151	=151	=151	=151
1r	.	0A	-bus,	1r	.	1d	-bus,	0D	-bus,	2.f/	-e-
.	.	.	.	.	.	.	.	.	.	4g/	-ri-
1D	in	.	.	1d	in	2r	.	.	.	1a	-bus,
.	.	.	.	.	.	2D/	in	.	.	.	.
=152	=152	=152	=152	=152	=152	=152	=152	=152	=152	=152	=152
1F	mu-	0r	.	1.c	mu-	1A	mu-	0r	.	0r	.
2E\	-li-	.	.	.	.	2G/	-li-	.	.	.	.
[2D\	-e-	.	.	2B-\	-li-	[2F/	-e-	.	.	.	.
=153	=153	=153	=153	=153	=153	=153	=153	=153	=153	=153	=153
4D\]	.	1r	.	1A	-e-	4F/]	.	0r	.	0r	.
4C/	.	.	.	.	.	4E/	.	.	.	.	.
2AA/	.	.	.	.	.	2C/	.	.	.	.	.
1BB-	-ri-	1d	et	1G	-ri-	1D	-ri-	.	.	.	.
=154	=154	=154	=154	=154	=154	=154	=154	=154	=154	=154	=154
1AA	-bus,	1c	be-	0A	-bus,	1E	-bus,	0r	.	1r	.
1D	et	1A	-ne-	.	.	2r	.	.	.	1f	et
.	.	.	.	.	.	2D/	et	.	.	.	.
=155	=155	=155	=155	=155	=155	=155	=155	=155	=155	=155	=155
1BB-	be-	0B-	-dic-	0r	.	2D/	be-	0r	.	2f/	be-
.	.	.	.	.	.	2D/	-ne-	.	.	2f/	-ne-
1GG	-ne-	.	.	.	.	1G	-dic-	.	.	1g	-dic-
=156	=156	=156	=156	=156	=156	=156	=156	=156	=156	=156	=156
0D	-dic-	0A	-tus,	1r	.	1F	-tus,	2r	.	0a	-tus,
.	.	.	.	.	.	.	.	2D/	et	.	.
.	.	.	.	1d	et	1r	.	2F/	be-	.	.
.	.	.	.	.	.	.	.	2D/	-ne-	.	.
=157	=157	=157	=157	=157	=157	=157	=157	=157	=157	=157	=157
1AA	-tus,	0r	.	1c	be-	1r	.	1E	-dic-	1r	.
1D	et	.	.	1A	-ne-	2r	.	1D	-tus,	1f	et
.	.	.	.	.	.	2D/	et	.	.	.	.
=158	=158	=158	=158	=158	=158	=158	=158	=158	=158	=158	=158
1BB-	be-	0r	.	0B-	-dic-	2D/	be-	2r	.	2f/	be-
.	.	.	.	.	.	2D/	-ne-	2d\	et	2f/	-ne-
1GG	-ne-	.	.	.	.	1G	-dic-	2d\	be-	1g	-dic-
.	.	.	.	.	.	.	.	2d\	-ne-	.	.
=159	=159	=159	=159	=159	=159	=159	=159	=159	=159	=159	=159
0D	-dic-	0r	.	0A	-tus,	1F	-tus	1d	-dic-	2a/	-tus
.	.	.	.	.	.	.	.	.	.	2a/	fruc-
.	.	.	.	.	.	1F	fruc-	1d	-tus	2a/	-tus
.	.	.	.	.	.	.	.	.	.	[2b-\	ven-
=160	=160	=160	=160	=160	=160	=160	=160	=160	=160	=160	=160
0GG	-tus	1.d	fruc-	0r	.	1G	-tus	0r	.	4b-\]	.
.	.	.	.	.	.	.	.	.	.	4a/	.
.	.	.	.	.	.	.	.	.	.	4g/	.
.	.	.	.	.	.	.	.	.	.	4f/	.
.	.	.	.	.	.	[1B-	ven-	.	.	1g	-tris
.	.	2d\	-tus	.	.	.	.	.	.	.	.
=161	=161	=161	=161	=161	=161	=161	=161	=161	=161	=161	=161
0r	.	1d	ven-	0r	.	1B-]	.	0r	.	2.f/	tu-
.	.	.	.	.	.	.	.	.	.	4d/	.
.	.	1c	-tris	.	.	1A	-tris	.	.	2f/	-i
.	.	.	.	.	.	.	.	.	.	[2e/	Je-
=162	=162	=162	=162	=162	=162	=162	=162	=162	=162	=162	=162
1r	.	2B-\	tu-	0r	.	2G/	tu-	1r	.	4e/]	.
.	.	.	.	.	.	.	.	.	.	4d/	.
.	.	2A/	-i	.	.	2F/	-i	.	.	1d	.
1G	fruc-	1G	Je-	.	.	1E	Je-	1e	fruc-	.	.
.	.	.	.	.	.	.	.	.	.	2c#i/	.
=163	=163	=163	=163	=163	=163	=163	=163	=163	=163	=163	=163
1A	-tus	0F	-sus.	1.d	fruc-	0D	-sus.	1f	-tus	1d	-sus.
[1B-	ven-	.	.	.	.	.	.	1f	ven-	1r	.
.	.	.	.	2d\	-tus	.	.	.	.	.	.
=164	=164	=164	=164	=164	=164	=164	=164	=164	=164	=164	=164
1B-]	.	0r	.	1d	ven-	0r	.	2d\	-tris	0r	.
.	.	.	.	.	.	.	.	1f	tu-	.	.
1A	-tris	.	.	1c	-tris	.	.	.	.	.	.
.	.	.	.	.	.	.	.	[2e\	-i	.	.
=165	=165	=165	=165	=165	=165	=165	=165	=165	=165	=165	=165
2G\	tu-	0r	.	2B-\	tu-	0r	.	4e\]	.	0r	.
.	.	.	.	.	.	.	.	4d\	.	.	.
2F\	-i	.	.	2A/	-i	.	.	1d	Je-	.	.
1E	Je-	.	.	1G	Je-	.	.	.	.	.	.
.	.	.	.	.	.	.	.	2c#i\	.	.	.
=166	=166	=166	=166	=166	=166	=166	=166	=166	=166	=166	=166
0D	-sus.	1r	.	0F	-sus.	1r	.	0d	-sus.	1r	.
.	.	1d	Sanc-	.	.	1D	Sanc-	.	.	1f	Sanc-
=167	=167	=167	=167	=167	=167	=167	=167	=167	=167	=167	=167
0r	.	2c\	-ta	0r	.	2E/	-ta	0r	.	2g/	-ta
.	.	2d\	Ma-	.	.	2D/	Ma-	.	.	2f/	Ma-
.	.	1B-	-ri-	.	.	1G	-ri-	.	.	1g	-ri-
=168	=168	=168	=168	=168	=168	=168	=168	=168	=168	=168	=168
0r	.	2A/	-a,	0r	.	2F/	-a,	1d	Sanc-	1a	-a,
.	.	2F/	re-	.	.	2D/	re-	.	.	.	.
.	.	2G/	-gi-	.	.	2E-/	-gi-	2c\	-ta	1r	.
.	.	2F/	-na	.	.	2D/	-na	2d\	Ma-	.	.
=169	=169	=169	=169	=169	=169	=169	=169	=169	=169	=169	=169
1r	.	1G	ce-	1r	.	1E-i	ce-	2.B-\	-ri-	1r	.
.	.	.	.	.	.	.	.	4c\	.	.	.
2r	.	1A	-li,	1d	Sanc-	1D	-li,	1d	-a,	1f	re-
2D\	Sanc-	.	.	.	.	.	.	.	.	.	.
=170	=170	=170	=170	=170	=170	=170	=170	=170	=170	=170	=170
2E\	-ta	0r	.	2c\	-ta	0r	.	0r	.	2g/	-gi-
2D\	Ma-	.	.	2d\	Ma-	.	.	.	.	2f/	-na
1G	-ri-	.	.	1B-	-ri-	.	.	.	.	1g	ce-
=171	=171	=171	=171	=171	=171	=171	=171	=171	=171	=171	=171
2F\	-a,	0r	.	2A/	-a,	0r	.	1d	re-	1a	-li,
2D\	re-	.	.	2F/	re-	.	.	.	.	.	.
2E-i\	-gi-	.	.	2G/	-gi-	.	.	2c\	-gi-	1r	.
2D\	-na	.	.	2F/	-na	.	.	2d\	-na	.	.
=172	=172	=172	=172	=172	=172	=172	=172	=172	=172	=172	=172
1E-i	ce-	1r	.	1G	ce-	1r	.	2.B-\	ce-	1r	.
.	.	.	.	.	.	.	.	4c\	.	.	.
1D	-li,	1d	dul-	1A	-li,	2r	.	1d	-li,	1f	dul-
.	.	.	.	.	.	2D/	dul-	.	.	.	.
=173	=173	=173	=173	=173	=173	=173	=173	=173	=173	=173	=173
0r	.	2c\	-cis	0r	.	2E/	-cis	0r	.	2g/	-cis
.	.	2d\	et	.	.	2D/	et	.	.	2f/	et
.	.	1B-	pi-	.	.	1G	pi-	.	.	1g	pi-
=174	=174	=174	=174	=174	=174	=174	=174	=174	=174	=174	=174
0r	.	2A/	-a,	0r	.	2F/	-a,	1d	dul-	1a	-a,
.	.	2F/	o	.	.	2D/	o	.	.	.	.
.	.	2G/	ma-	.	.	2E-i/	ma-	2c\	-cis	1r	.
.	.	2F/	-ter	.	.	2D/	-ter	2d\	et	.	.
=175	=175	=175	=175	=175	=175	=175	=175	=175	=175	=175	=175
1r	.	1G	de-	1r	.	1E-i	de-	2.B-\	pi-	1r	.
.	.	.	.	.	.	.	.	4c\	.	.	.
2r	.	1A	-i,	1d	dul-	1D	-i,	1d	-a,	1f	o
2D\	dul-	.	.	.	.	.	.	.	.	.	.
=176	=176	=176	=176	=176	=176	=176	=176	=176	=176	=176	=176
2E\	-cis	0r	.	2c\	-cis	0r	.	0r	.	2g/	ma-
2D\	et	.	.	2d\	et	.	.	.	.	2f/	-ter
1G	pi-	.	.	1B-	pi-	.	.	.	.	1g	de-
=177	=177	=177	=177	=177	=177	=177	=177	=177	=177	=177	=177
2F\	-a,	0r	.	2A/	-a,	0r	.	1d	o	1a	-i,
2D\	o	.	.	2F/	o	.	.	.	.	.	.
2E-i\	ma-	.	.	2G/	ma-	.	.	2c\	ma-	1r	.
2D\	-ter	.	.	2F/	-ter	.	.	2d\	-ter	.	.
=178	=178	=178	=178	=178	=178	=178	=178	=178	=178	=178	=178
1E-i	de-	0r	.	1G	de-	0r	.	2.B-\	de-	0r	.
.	.	.	.	.	.	.	.	4c\	.	.	.
1D	-i,	.	.	1A	-i,	.	.	1d	-i,	.	.
=179	=179	=179	=179	=179	=179	=179	=179	=179	=179	=179	=179
2r	.	1d	o-	0r	.	1f	o-	0r	.	1a	o-
2D\	o-	.	.	.	.	.	.	.	.	.	.
2D\	-ra	2d\	-ra	.	.	2f\	-ra	.	.	2a/	-ra
2D\	pro	2d\	pro	.	.	2f\	pro	.	.	2a/	pro
=180	=180	=180	=180	=180	=180	=180	=180	=180	=180	=180	=180
1BB-	no-	1d	no-	0r	.	1f	no-	0r	.	1b-	no-
1F	-bis	1c	-bis	.	.	1f	-bis	.	.	1a	-bis
=181	=181	=181	=181	=181	=181	=181	=181	=181	=181	=181	=181
2G\	pec-	2B-\	pec-	0r	.	2.d\	pec-	0r	.	2g/	pec-
2F\	-ca-	2A/	-ca-	.	.	.	.	.	.	2a/	-ca-
.	.	.	.	.	.	4d\	-ca-	.	.	.	.
2G\	-to-	2B-\	-to-	.	.	2d\	-to-	.	.	2d/	-to-
2E\	-ri-	2G/	-ri-	.	.	2c\	-ri-	.	.	2e/	-ri-
=182	=182	=182	=182	=182	=182	=182	=182	=182	=182	=182	=182
2D\	-bus,	0A	-bus,	1d	o-	1d	-bus,	1f	o-	2f/	-bus,
2D\	o-	.	.	.	.	.	.	.	.	2a/	o-
2D\	-ra	.	.	2d\	-ra	1r	.	2f\	-ra	2a/	-ra
2D\	pro	.	.	2d\	pro	.	.	2f\	pro	2a/	pro
=183	=183	=183	=183	=183	=183	=183	=183	=183	=183	=183	=183
1BB-	no-	0r	.	1d	no-	0r	.	1f	no-	1b-	no-
1F	-bis	.	.	1c	-bis	.	.	1f	-bis	1a	-bis
=184	=184	=184	=184	=184	=184	=184	=184	=184	=184	=184	=184
2G\	pec-	0r	.	2B-\	pec-	0r	.	2.d\	pec-	2g/	pec-
2F\	-ca-	.	.	2A/	-ca-	.	.	.	.	2a/	-ca-
.	.	.	.	.	.	.	.	4d\	-ca-	.	.
2G\	-to-	.	.	2B-\	-to-	.	.	2d\	-to-	2d/	-to-
2E\	-ri-	.	.	2G/	-ri-	.	.	2c\	-ri-	2e/	-ri-
=185	=185	=185	=185	=185	=185	=185	=185	=185	=185	=185	=185
2D\	-bus,	1d	ut	0A	-bus,	1f	ut	1d	-bus,	2f/	-bus,
2D\	ut	.	.	.	.	.	.	.	.	2a/	ut
2D\	cum	2d\	cum	.	.	2f\	cum	1r	.	2a/	cum
2D\	e-	2d\	e-	.	.	2f\	e-	.	.	2a/	e-
=186	=186	=186	=186	=186	=186	=186	=186	=186	=186	=186	=186
1BB-	-lec-	1d	-lec-	0r	.	1f	-lec-	0r	.	1b-	-lec-
2F\	-tis	2c\	-tis	.	.	2f\	-tis	.	.	2a/	-tis
2F\	te	2A/	te	.	.	2f\	te	.	.	2cc\	te
=187	=187	=187	=187	=187	=187	=187	=187	=187	=187	=187	=187
2G\	vi-	2B-\	vi-	0r	.	2d\	vi-	1r	.	2b-\	vi-
2C/	-de-	2c\	-de-	.	.	2e-i\	-de-	.	.	2.g/	-de-
1D	-a-	1A	-a-	.	.	1d	-a-	1d	ut	.	.
.	.	.	.	.	.	.	.	.	.	4f#i/	.
.	.	.	.	.	.	.	.	.	.	4f#i/	-a-
.	.	.	.	.	.	.	.	.	.	4e/	.
=188	=188	=188	=188	=188	=188	=188	=188	=188	=188	=188	=188
2GG/	-mus,	0G	-mus,	1d	ut	0B-	-mus,	2d\	cum	2g/	-mus,
2G\	ut	.	.	.	.	.	.	2d\	e-	2b-\	ut
2G\	cum	.	.	2d\	cum	.	.	1g	-lec-	2b-\	cum
2G\	e-	.	.	2d\	e-	.	.	.	.	2b-\	e-
=189	=189	=189	=189	=189	=189	=189	=189	=189	=189	=189	=189
1B-	-lec-	0r	.	1d	-lec-	0r	.	1f	-tis	1b-	-lec-
2F\	-tis	.	.	2c\	-tis	.	.	1f	te	2a/	-tis
2F\	te	.	.	2A/	te	.	.	.	.	2cc\	te
=190	=190	=190	=190	=190	=190	=190	=190	=190	=190	=190	=190
2G\	vi-	0r	.	2B-\	vi-	0r	.	2d\	vi-	2b-\	vi-
2C/	-de-	.	.	2c\	-de-	.	.	2e-i\	-de-	1g	-de-
1D	-a-	.	.	1A	-a-	.	.	1d	-a-	.	.
.	.	.	.	.	.	.	.	.	.	2f#i/	-a-
=191	=191	=191	=191	=191	=191	=191	=191	=191	=191	=191	=191
2GG/	-mus,	2r	.	0G	-mus,	2r	.	2B-\	-mus,	1g	-mus,
2GG/	ut	2G/	ut	.	.	2d\	ut	2B-\	ut	.	.
2GG/	cum	2G/	cum	.	.	2d\	cum	2B-\	cum	2r	.
2GG/	e-	2G/	e-	.	.	2d\	e-	2B-\	e-	2g/	ut
=192	=192	=192	=192	=192	=192	=192	=192	=192	=192	=192	=192
1C	-lec-	2.E-i/	-lec-	0r	.	1e-i	-lec-	1c	-lec-	2g/	cum
.	.	.	.	.	.	.	.	.	.	2g/	e-
.	.	4F/	.	.	.	.	.	.	.	.	.
2GG/	-tis	2G/	-tis	.	.	2d\	-tis	2B-\	-tis	1b-	-lec-
2GG/	te	2G/	te	.	.	2d\	te	2B-\	te	.	.
=193	=193	=193	=193	=193	=193	=193	=193	=193	=193	=193	=193
2C/	vi-	2G/	vi-	0r	.	2e-i\	vi-	2c\	vi-	2g/	-tis
2BB-/	-de-	2G/	-de-	.	.	2d\	-de-	2d\	-de-	2g/	te
1C	-a-	2.E-i/	-a-	.	.	1c	-a-	1e-i	-a-	2g/	vi-
.	.	.	.	.	.	.	.	.	.	2g/	-de-
.	.	4F/	.	.	.	.	.	.	.	.	.
=194	=194	=194	=194	=194	=194	=194	=194	=194	=194	=194	=194
2GG/	-mus,	[0Gl	-mus.	2r	.	2B-\	-mus,	2d\	-mus,	2.b-\	-a-
2GG/	ut	.	.	2G/	ut	2B-\	ut	2d\	ut	.	.
.	.	.	.	.	.	.	.	.	.	4g/	.
2GG/	cum	.	.	2G/	cum	2B-\	cum	2d\	cum	2g/	-mus,
2GG/	e-	.	.	2G/	e-	2B-\	e-	2d\	e-	2g/	ut
=195	=195	=195	=195	=195	=195	=195	=195	=195	=195	=195	=195
1C	-lec-	0G_	.	2.E-i/	-lec-	1c	-lec-	1e-i	-lec-	2g/	cum
.	.	.	.	.	.	.	.	.	.	2g/	e-
.	.	.	.	4F/	.	.	.	.	.	.	.
2GG/	-tis	.	.	2G/	-tis	2B-\	-tis	2d\	-tis	1b-	-lec-
2GG/	te	.	.	2G/	te	2B-\	te	2d\	te	.	.
=196	=196	=196	=196	=196	=196	=196	=196	=196	=196	=196	=196
2C/	vi-	0G_	.	2G/	vi-	2c\	vi-	2e-i\	vi-	2g/	-tis
2BB-/	-de-	.	.	2G/	-de-	2d\	-de-	2d\	-de-	2g/	te
1C	-a-	.	.	2.E-i/	-a-	1e-i	-a-	1c	-a-	2g/	vi-
.	.	.	.	.	.	.	.	.	.	2g/	-de-
.	.	.	.	4F/	.	.	.	.	.	.	.
=197	=197	=197	=197	=197	=197	=197	=197	=197	=197	=197	=197
[0GGl	-mus.	0G_	.	[0Gl	-mus.	[0dl	-mus.	[0B-l	-mus.	1.b-	-a-
.	.	.	.	.	.	.	.	.	.	2g/	.
=198	=198	=198	=198	=198	=198	=198	=198	=198	=198	=198	=198
0GG]	.	0G]	.	0G]	.	0d]	.	0B-]	.	0gl	-mus.
==	==	==	==	==	==	==	==	==	==	==	==
*-	*-	*-	*-	*-	*-	*-	*-	*-	*-	*-	*-
!!!RDF**kern: l=long note in original notation
!!!RDF**kern: i=editorial accidental
!!!RDF**kern: V=start of tuplet marker
!!!RDF**kern: Z=end of tuplet marker
!!!ENC:	Will Watson 2011/05/15; JR 2013/03/08 (text)
!!!END:	2013/03/08/
!!!EED:	Jesse Rodin
!!!EEV:	2013/03/08/
!!attribution-level@Jos: 1 (secure, core group [checkmark])
!!!ONB:	Translated from MusicXML and edited on 2011/08/10/ by Craig Sapp
!!muse2ps: u^(2) @{OTL2}^C^@{COM}\n@{SCT}^v80,80,80,80,80,110i2I150c100Q16
!!!ONB: April 2013 Concert
